(.../pcb-gcode-3_6_0_4/pcb-gcode.ulp)
(Copyright 2005 - 2012 by John Johnson)
(See readme.txt for licensing terms.)
(This file generated from the board:)
(.../Eigene Projekte/Estl-Board/Estl-Board.brd)
(Current profile is .../pcb-gcode-3_6_0_4/profiles/generic.pp  )
(This file generated 17.09.2020 12:04)
(Settings from pcb-machine.h)
(  Tool Size)
(0.1778 )
(Z Axis Settings)
(  High     Up        Down     Drill)
(12.7000 	2.5400 	-0.1778 	-0.8128 )
(spindle on time = 3.0000)
(milling depth = -0.2540)
(text depth = -0.1270)
(tool change at 12.7000 15.2400 25.4000 )
(feed rate xy = F508.00 )
(feed rate z  = F254.00 )
(Settings from pcb-defaults.h)
(isolate min = 0.0254)
(isolate max = 0.5080)
(isolate step = 0.1270)
(Generated top outlines, top drill, )
(Unit of measure: mm)
(Metric Mode)
G21
(Absolute Coordinates)
G90
G00 X0.0000 Y0.0000 
M03
G04 P3.000000
G00 Z2.5400 
G00 X9.3599 Y44.5638 
G01 Z-0.1778 F254.00 
G01 X9.3796 Y44.6882 F508.00 
G01 X9.4185 Y44.8079 
G01 X9.4757 Y44.9201 
G01 X9.5497 Y45.0220 
G01 X9.6388 Y45.1111 
G01 X9.7407 Y45.1851 
G01 X9.7409 Y45.1525 
G01 X9.6662 Y45.1025 
G01 X9.5583 Y44.9946 
G01 X9.4735 Y44.8678 
G01 X9.4151 Y44.7268 
G01 X9.3853 Y44.5771 
G01 X9.3853 Y43.5991 
G01 X9.3599 Y43.5991 
G01 X9.3599 Y44.5638 
G00 Z2.5400 
G00 X10.8443 Y42.7607 
G01 Z-0.1778 F254.00 
G01 X10.7703 Y42.6588 F508.00 
G01 X10.6812 Y42.5697 
G01 X10.5793 Y42.4957 
G01 X10.5791 Y42.5283 
G01 X10.6538 Y42.5783 
G01 X10.7617 Y42.6862 
G01 X10.8117 Y42.7609 
G01 X10.8444 Y42.7609 
G00 Z2.5400 
G00 X10.8443 Y44.9201 
G01 Z-0.1778 F254.00 
G01 X10.9015 Y44.8079 F508.00 
G01 X10.9404 Y44.6882 
G01 X10.9601 Y44.5638 
G01 X10.9601 Y43.5991 
G01 X10.9347 Y43.5991 
G01 X10.9347 Y44.5771 
G01 X10.9049 Y44.7268 
G01 X10.8465 Y44.8678 
G01 X10.7617 Y44.9946 
G01 X10.6538 Y45.1025 
G01 X10.5791 Y45.1525 
G01 X10.5791 Y45.1852 
G01 X10.6812 Y45.1111 
G01 X10.7703 Y45.0220 
G01 X10.8443 Y44.9201 
G00 Z2.5400 
G00 X9.7406 Y42.4957 
G01 Z-0.1778 F254.00 
G01 X9.6388 Y42.5697 F508.00 
G01 X9.5497 Y42.6588 
G01 X9.4757 Y42.7606 
G01 X9.5083 Y42.7609 
G01 X9.5583 Y42.6862 
G01 X9.6662 Y42.5783 
G01 X9.7409 Y42.5283 
G01 X9.7409 Y42.4956 
G00 Z2.5400 
G00 X84.2247 Y8.6419 
G01 Z-0.1778 F254.00 
G01 X83.5666 Y8.3693 F508.00 
G01 X82.8542 Y8.3693 
G01 X82.1960 Y8.6419 
G01 X81.6923 Y9.1456 
G01 X81.4197 Y9.8038 
G01 X81.4197 Y10.5162 
G01 X81.6923 Y11.1743 
G01 X82.1960 Y11.6781 
G01 X82.8542 Y11.9507 
G01 X83.5666 Y11.9507 
G01 X84.2247 Y11.6781 
G01 X84.7285 Y11.1743 
G01 X85.0011 Y10.5162 
G01 X85.0011 Y9.8038 
G01 X84.7285 Y9.1456 
G01 X84.2247 Y8.6419 
G00 Z2.5400 
G00 X79.7974 Y69.5375 
G01 Z-0.1778 F254.00 
G01 X79.1113 Y69.2533 F508.00 
G01 X78.3687 Y69.2533 
G01 X77.6826 Y69.5375 
G01 X77.1575 Y70.0626 
G01 X76.8733 Y70.7487 
G01 X76.8733 Y71.4913 
G01 X77.1575 Y72.1774 
G01 X77.6826 Y72.7025 
G01 X78.3687 Y72.9867 
G01 X79.1113 Y72.9867 
G01 X79.7974 Y72.7025 
G01 X80.3225 Y72.1774 
G01 X80.6067 Y71.4913 
G01 X80.6067 Y70.7487 
G01 X80.3225 Y70.0626 
G01 X79.7974 Y69.5375 
G00 Z2.5400 
G00 X4.1032 Y53.5349 
G01 Z-0.1778 F254.00 
G01 X3.9423 Y53.5604 F508.00 
G01 X3.7873 Y53.6108 
G01 X3.6421 Y53.6848 
G01 X3.5104 Y53.7805 
G01 X3.3951 Y53.8957 
G01 X3.2994 Y54.0275 
G01 X3.2365 Y54.1509 
G01 X3.2654 Y54.1509 
G01 X3.2899 Y54.0918 
G01 X3.4004 Y53.9264 
G01 X3.5410 Y53.7858 
G01 X3.7064 Y53.6753 
G01 X3.8901 Y53.5992 
G01 X4.0852 Y53.5603 
G01 X4.6609 Y53.5603 
G01 X4.6609 Y53.5349 
G01 X4.1032 Y53.5349 
G00 Z2.5400 
G00 X6.0568 Y55.6050 
G01 Z-0.1778 F254.00 
G01 X6.2177 Y55.5796 F508.00 
G01 X6.3727 Y55.5292 
G01 X6.5178 Y55.4552 
G01 X6.6496 Y55.3595 
G01 X6.7649 Y55.2443 
G01 X6.8606 Y55.1125 
G01 X6.9235 Y54.9891 
G01 X6.8946 Y54.9891 
G01 X6.8701 Y55.0482 
G01 X6.7596 Y55.2136 
G01 X6.6190 Y55.3542 
G01 X6.4536 Y55.4647 
G01 X6.2699 Y55.5408 
G01 X6.0748 Y55.5796 
G01 X5.4991 Y55.5796 
G01 X5.4991 Y55.6050 
G01 X6.0568 Y55.6050 
G00 Z2.5400 
G00 X3.5104 Y55.3595 
G01 Z-0.1778 F254.00 
G01 X3.6421 Y55.4552 F508.00 
G01 X3.7873 Y55.5292 
G01 X3.9423 Y55.5796 
G01 X4.1032 Y55.6050 
G01 X4.6609 Y55.6050 
G01 X4.6609 Y55.5796 
G01 X4.0852 Y55.5796 
G01 X3.8901 Y55.5408 
G01 X3.7064 Y55.4647 
G01 X3.5410 Y55.3542 
G01 X3.4004 Y55.2136 
G01 X3.2899 Y55.0482 
G01 X3.2654 Y54.9891 
G01 X3.2365 Y54.9891 
G01 X3.2994 Y55.1125 
G01 X3.3951 Y55.2443 
G01 X3.5104 Y55.3595 
G00 Z2.5400 
G00 X6.8606 Y54.0275 
G01 Z-0.1778 F254.00 
G01 X6.7648 Y53.8957 F508.00 
G01 X6.6496 Y53.7805 
G01 X6.5178 Y53.6848 
G01 X6.3727 Y53.6108 
G01 X6.2177 Y53.5604 
G01 X6.0568 Y53.5349 
G01 X5.4991 Y53.5349 
G01 X5.4991 Y53.5603 
G01 X6.0748 Y53.5603 
G01 X6.2699 Y53.5992 
G01 X6.4536 Y53.6753 
G01 X6.6190 Y53.7858 
G01 X6.7596 Y53.9264 
G01 X6.8701 Y54.0918 
G01 X6.8946 Y54.1509 
G01 X6.9235 Y54.1509 
G01 X6.8606 Y54.0275 
G00 Z2.5400 
G00 X10.5153 Y28.9726 
G01 Z-0.1778 F254.00 
G01 X10.2994 Y28.7567 F508.00 
G01 X9.0874 Y27.5447 
G01 X9.0357 Y27.5233 
G01 X9.1073 Y27.5646 
G01 X10.4173 Y28.8746 
G01 X10.4954 Y28.9527 
G01 X10.5367 Y29.0242 
G01 X10.5153 Y28.9726 
G00 Z2.5400 
G00 X10.6628 Y33.6464 
G01 Z-0.1778 F254.00 
G01 X10.6077 Y33.5509 F508.00 
G01 X10.5791 Y33.4443 
G01 X10.5791 Y29.1266 
G01 X10.5577 Y29.0750 
G01 X10.5791 Y29.1548 
G01 X10.5791 Y33.5875 
G01 X10.6538 Y33.6375 
G01 X10.7617 Y33.7454 
G01 X10.8465 Y33.8722 
G01 X10.9049 Y34.0132 
G01 X10.9347 Y34.1629 
G01 X10.9347 Y35.6363 
G01 X10.9049 Y35.7860 
G01 X10.8465 Y35.9270 
G01 X10.7617 Y36.0538 
G01 X10.6538 Y36.1617 
G01 X10.5270 Y36.2465 
G01 X10.3860 Y36.3049 
G01 X10.2363 Y36.3347 
G01 X10.0837 Y36.3347 
G01 X9.9340 Y36.3049 
G01 X9.7930 Y36.2465 
G01 X9.6662 Y36.1617 
G01 X9.5583 Y36.0538 
G01 X9.4735 Y35.9270 
G01 X9.4151 Y35.7860 
G01 X9.3853 Y35.6363 
G01 X9.3853 Y34.1629 
G01 X9.4151 Y34.0132 
G01 X9.4735 Y33.8722 
G01 X9.5583 Y33.7454 
G01 X9.6662 Y33.6375 
G01 X9.7409 Y33.5875 
G01 X9.7409 Y29.3836 
G01 X8.6764 Y28.3191 
G01 X6.8946 Y28.3191 
G01 X6.8701 Y28.3782 
G01 X6.7596 Y28.5436 
G01 X6.6190 Y28.6842 
G01 X6.4536 Y28.7947 
G01 X6.2699 Y28.8708 
G01 X6.0748 Y28.9096 
G01 X4.0852 Y28.9096 
G01 X3.8901 Y28.8708 
G01 X3.7064 Y28.7947 
G01 X3.5410 Y28.6842 
G01 X3.4004 Y28.5436 
G01 X3.2899 Y28.3782 
G01 X3.2138 Y28.1945 
G01 X3.1750 Y27.9994 
G01 X3.1750 Y27.8006 
G01 X3.2138 Y27.6055 
G01 X3.2899 Y27.4218 
G01 X3.4004 Y27.2564 
G01 X3.5410 Y27.1158 
G01 X3.7064 Y27.0053 
G01 X3.8901 Y26.9291 
G01 X4.0852 Y26.8904 
G01 X6.0748 Y26.8904 
G01 X6.2699 Y26.9291 
G01 X6.4536 Y27.0053 
G01 X6.6190 Y27.1158 
G01 X6.7596 Y27.2564 
G01 X6.8701 Y27.4218 
G01 X6.8946 Y27.4809 
G01 X8.9052 Y27.4809 
G01 X8.9850 Y27.5023 
G01 X8.9334 Y27.4809 
G01 X7.1025 Y27.4809 
G01 X6.9959 Y27.4523 
G01 X6.9004 Y27.3972 
G01 X6.8223 Y27.3191 
G01 X6.5473 Y27.0441 
G01 X6.1762 Y26.8903 
G01 X3.9838 Y26.8903 
G01 X3.6127 Y27.0441 
G01 X3.3287 Y27.3281 
G01 X3.1750 Y27.6992 
G01 X3.1750 Y28.1008 
G01 X3.3287 Y28.4719 
G01 X3.6127 Y28.7559 
G01 X3.9838 Y28.9096 
G01 X6.1762 Y28.9096 
G01 X6.5473 Y28.7559 
G01 X6.9004 Y28.4028 
G01 X6.9959 Y28.3477 
G01 X7.1025 Y28.3191 
G01 X8.5580 Y28.3191 
G01 X8.6646 Y28.3477 
G01 X8.7601 Y28.4028 
G01 X8.8382 Y28.4809 
G01 X9.6572 Y29.2999 
G01 X9.7123 Y29.3954 
G01 X9.7409 Y29.5020 
G01 X9.7409 Y33.4443 
G01 X9.7123 Y33.5509 
G01 X9.6572 Y33.6464 
G01 X9.5791 Y33.7245 
G01 X9.5032 Y33.8004 
G01 X9.3853 Y34.0851 
G01 X9.3853 Y35.7141 
G01 X9.5032 Y35.9988 
G01 X9.7212 Y36.2168 
G01 X10.0059 Y36.3347 
G01 X10.3141 Y36.3347 
G01 X10.5988 Y36.2168 
G01 X10.8168 Y35.9988 
G01 X10.9347 Y35.7141 
G01 X10.9347 Y34.0851 
G01 X10.8168 Y33.8004 
G01 X10.6628 Y33.6464 
G00 Z2.5400 
G00 X86.1441 Y27.3884 
G01 Z-0.1778 F254.00 
G01 X86.1441 Y14.7756 F508.00 
G01 X86.1227 Y14.7240 
G01 X86.1441 Y14.8038 
G01 X86.1441 Y27.3602 
G01 X86.1227 Y27.4400 
G01 X86.1441 Y27.3884 
G00 Z2.5400 
G00 X86.0803 Y14.6216 
G01 Z-0.1778 F254.00 
G01 X85.9425 Y14.4838 F508.00 
G01 X85.9425 Y14.4838 
G01 X85.9823 Y14.5236 
G01 X86.0604 Y14.6017 
G01 X86.1017 Y14.6732 
G01 X86.0803 Y14.6216 
G00 Z2.5400 
G00 X85.8644 Y14.4057 
G01 Z-0.1778 F254.00 
G01 X84.4384 Y12.9797 F508.00 
G01 X84.3867 Y12.9583 
G01 X84.4583 Y12.9996 
G01 X85.8644 Y14.4057 
G00 Z2.5400 
G00 X28.1136 Y48.0949 
G01 Z-0.1778 F254.00 
G01 X29.5521 Y48.0949 F508.00 
G01 X30.0855 Y47.5615 
G01 X30.8745 Y47.5615 
G01 X31.4325 Y48.1195 
G01 X31.4325 Y48.9085 
G01 X30.8924 Y49.4486 
G01 X31.4325 Y48.9085 
G01 X31.4325 Y48.1195 
G01 X30.8144 Y47.5013 
G01 X30.7592 Y47.4058 
G01 X30.7306 Y47.2992 
G01 X30.7306 Y47.1888 
G01 X30.7592 Y47.0822 
G01 X30.8144 Y46.9867 
G01 X30.8745 Y46.9265 
G01 X30.0855 Y46.9265 
G01 X29.5275 Y46.3685 
G01 X29.5275 Y45.5795 
G01 X30.0855 Y45.0215 
G01 X30.8745 Y45.0215 
G01 X31.3652 Y45.5121 
G01 X32.6009 Y44.2764 
G01 X32.6009 Y42.9726 
G01 X31.3224 Y41.6941 
G01 X29.1548 Y41.6941 
G01 X29.0482 Y41.6655 
G01 X28.9527 Y41.6104 
G01 X28.8746 Y41.5323 
G01 X27.6046 Y40.2623 
G01 X27.5495 Y40.1668 
G01 X27.5209 Y40.0602 
G01 X27.5209 Y21.5348 
G01 X27.5495 Y21.4282 
G01 X27.6046 Y21.3327 
G01 X27.6827 Y21.2546 
G01 X30.2227 Y18.7146 
G01 X30.3182 Y18.6595 
G01 X30.4248 Y18.6309 
G01 X39.4252 Y18.6309 
G01 X39.5318 Y18.6595 
G01 X39.6273 Y18.7146 
G01 X39.7054 Y18.7927 
G01 X44.6236 Y23.7109 
G01 X48.0864 Y23.7109 
G01 X52.2859 Y19.5114 
G01 X52.2859 Y11.8339 
G01 X52.2818 Y11.8547 
G01 X52.2114 Y12.0246 
G01 X52.1093 Y12.1774 
G01 X51.9792 Y12.3075 
G01 X51.8264 Y12.4096 
G01 X51.8033 Y12.4192 
G01 X51.8033 Y17.5716 
G01 X51.7747 Y17.6782 
G01 X51.7196 Y17.7738 
G01 X51.6415 Y17.8518 
G01 X47.2652 Y22.2281 
G01 X47.1872 Y22.3062 
G01 X47.0916 Y22.3613 
G01 X46.9850 Y22.3899 
G01 X44.4550 Y22.3899 
G01 X44.3484 Y22.3613 
G01 X44.2528 Y22.3062 
G01 X44.1748 Y22.2281 
G01 X39.5108 Y17.5641 
G01 X30.0186 Y17.5641 
G01 X27.0891 Y20.4936 
G01 X27.0891 Y41.7364 
G01 X28.3676 Y43.0149 
G01 X29.5521 Y43.0149 
G01 X30.0855 Y42.4815 
G01 X30.8745 Y42.4815 
G01 X31.4325 Y43.0395 
G01 X31.4325 Y43.8285 
G01 X30.8745 Y44.3865 
G01 X30.0855 Y44.3865 
G01 X29.5521 Y43.8531 
G01 X28.1388 Y43.8531 
G01 X28.0322 Y43.8245 
G01 X27.9367 Y43.7694 
G01 X26.4127 Y42.2454 
G01 X26.3346 Y42.1673 
G01 X26.2795 Y42.0718 
G01 X26.2509 Y41.9652 
G01 X26.2509 Y20.2648 
G01 X26.2795 Y20.1582 
G01 X26.3346 Y20.0627 
G01 X26.4127 Y19.9846 
G01 X29.5096 Y16.8877 
G01 X29.5877 Y16.8096 
G01 X29.6832 Y16.7545 
G01 X29.7898 Y16.7259 
G01 X39.7395 Y16.7259 
G01 X39.8461 Y16.7545 
G01 X39.9417 Y16.8096 
G01 X40.0197 Y16.8877 
G01 X40.1026 Y16.9705 
G01 X40.0481 Y16.8762 
G01 X40.0188 Y16.7684 
G01 X40.0188 Y16.6580 
G01 X40.0474 Y16.5514 
G01 X40.1026 Y16.4559 
G01 X40.1806 Y16.3778 
G01 X40.2750 Y16.3234 
G01 X40.3828 Y16.2941 
G01 X44.4064 Y16.2941 
G01 X44.4580 Y16.2727 
G01 X44.3782 Y16.2941 
G01 X28.7486 Y16.2941 
G01 X25.8191 Y19.2236 
G01 X25.8191 Y45.8004 
G01 X28.1136 Y48.0949 
G00 Z2.5400 
G00 X22.5047 Y48.4974 
G01 Z-0.1778 F254.00 
G01 X22.7206 Y48.7133 F508.00 
G01 X27.9566 Y53.9493 
G01 X28.0082 Y53.9707 
G01 X27.9367 Y53.9294 
G01 X27.8586 Y53.8513 
G01 X22.6027 Y48.5954 
G01 X22.5246 Y48.5173 
G01 X22.4833 Y48.4457 
G01 X22.5047 Y48.4974 
G00 Z2.5400 
G00 X25.7976 Y12.9797 
G01 Z-0.1778 F254.00 
G01 X25.5817 Y13.1956 F508.00 
G01 X22.5047 Y16.2726 
G01 X22.4833 Y16.3243 
G01 X22.5246 Y16.2527 
G01 X25.6996 Y13.0777 
G01 X25.7777 Y12.9996 
G01 X25.8493 Y12.9583 
G01 X25.7976 Y12.9797 
G00 Z2.5400 
G00 X22.4409 Y16.4266 
G01 Z-0.1778 F254.00 
G01 X22.4409 Y48.3434 F508.00 
G01 X22.4623 Y48.3950 
G01 X22.4409 Y48.3152 
G01 X22.4409 Y16.4548 
G01 X22.4623 Y16.3750 
G01 X22.4409 Y16.4266 
G00 Z2.5400 
G00 X28.1106 Y54.0131 
G01 Z-0.1778 F254.00 
G01 X29.4336 Y54.0131 F508.00 
G01 X29.5402 Y54.0417 
G01 X29.6358 Y54.0968 
G01 X29.7138 Y54.1749 
G01 X30.1456 Y54.6067 
G01 X30.2008 Y54.7022 
G01 X30.2294 Y54.8088 
G01 X30.2294 Y54.9192 
G01 X30.2008 Y55.0258 
G01 X30.1456 Y55.1213 
G01 X30.0676 Y55.1994 
G01 X29.5275 Y55.7395 
G01 X29.5275 Y56.5285 
G01 X30.0509 Y57.0519 
G01 X30.1277 Y57.1287 
G01 X30.1828 Y57.2243 
G01 X30.2111 Y57.3296 
G01 X30.2114 Y57.4412 
G01 X30.1828 Y57.5478 
G01 X30.1277 Y57.6434 
G01 X30.0496 Y57.7214 
G01 X29.5162 Y58.2549 
G01 X29.5521 Y58.2549 
G01 X30.0855 Y57.7215 
G01 X30.8745 Y57.7215 
G01 X31.4079 Y58.2549 
G01 X31.4438 Y58.2549 
G01 X30.9091 Y57.7202 
G01 X30.8323 Y57.6434 
G01 X30.7771 Y57.5478 
G01 X30.7489 Y57.4424 
G01 X30.7486 Y57.3309 
G01 X30.7771 Y57.2243 
G01 X30.8323 Y57.1287 
G01 X30.9104 Y57.0507 
G01 X31.4325 Y56.5285 
G01 X31.4325 Y55.7395 
G01 X30.8144 Y55.1213 
G01 X30.7592 Y55.0258 
G01 X30.7306 Y54.9192 
G01 X30.7306 Y54.8088 
G01 X30.7592 Y54.7022 
G01 X30.8144 Y54.6067 
G01 X30.8745 Y54.5465 
G01 X30.0855 Y54.5465 
G01 X29.5521 Y54.0131 
G01 X28.1388 Y54.0131 
G01 X28.0590 Y53.9917 
G01 X28.1106 Y54.0131 
G00 Z2.5400 
G00 X31.4325 Y55.7395 
G01 Z-0.1778 F254.00 
G01 X31.4325 Y56.5285 F508.00 
G01 X30.8745 Y57.0865 
G01 X30.0855 Y57.0865 
G01 X29.5275 Y56.5285 
G01 X29.5275 Y55.7395 
G01 X30.0855 Y55.1815 
G01 X30.8745 Y55.1815 
G01 X31.4325 Y55.7395 
G00 Z2.5400 
G00 X49.5490 Y11.4905 
G01 Z-0.1778 F254.00 
G01 X49.5490 Y11.6743 F508.00 
G01 X49.5132 Y11.8547 
G01 X49.4428 Y12.0246 
G01 X49.3407 Y12.1774 
G01 X49.2106 Y12.3075 
G01 X49.0578 Y12.4096 
G01 X48.8879 Y12.4800 
G01 X48.7075 Y12.5158 
G01 X48.5237 Y12.5158 
G01 X48.3433 Y12.4800 
G01 X48.3203 Y12.4704 
G01 X48.1911 Y12.5996 
G01 X48.2867 Y12.5444 
G01 X48.3933 Y12.5158 
G01 X48.8013 Y12.5158 
G01 X49.1444 Y12.3737 
G01 X49.4069 Y12.1112 
G01 X49.5490 Y11.7681 
G01 X49.5490 Y11.3967 
G01 X49.4069 Y11.0536 
G01 X49.1444 Y10.7911 
G01 X48.8013 Y10.6489 
G01 X48.4299 Y10.6489 
G01 X48.0868 Y10.7911 
G01 X47.8243 Y11.0536 
G01 X47.6821 Y11.3967 
G01 X47.6821 Y11.8047 
G01 X47.6589 Y11.8916 
G01 X47.6536 Y11.9113 
G01 X47.6125 Y11.9825 
G01 X47.5984 Y12.0069 
G01 X47.5349 Y12.0704 
G01 X47.4580 Y12.1473 
G01 X47.3613 Y12.2036 
G01 X47.2982 Y12.2205 
G01 X47.2547 Y12.2322 
G01 X47.1444 Y12.2322 
G01 X47.0599 Y12.2095 
G01 X47.0378 Y12.2036 
G01 X46.9690 Y12.1639 
G01 X46.9422 Y12.1484 
G01 X46.8654 Y12.0716 
G01 X46.8090 Y11.9748 
G01 X46.7921 Y11.9117 
G01 X46.7804 Y11.8682 
G01 X46.7804 Y11.3967 
G01 X46.6383 Y11.0536 
G01 X46.3758 Y10.7911 
G01 X46.0327 Y10.6489 
G01 X45.6613 Y10.6489 
G01 X45.3182 Y10.7911 
G01 X45.0557 Y11.0536 
G01 X44.9135 Y11.3967 
G01 X44.9135 Y11.8047 
G01 X44.8903 Y11.8916 
G01 X44.8850 Y11.9113 
G01 X44.8439 Y11.9825 
G01 X44.8298 Y12.0069 
G01 X44.7663 Y12.0704 
G01 X44.9590 Y11.8777 
G01 X44.9494 Y11.8547 
G01 X44.9136 Y11.6743 
G01 X44.9136 Y11.4905 
G01 X44.9494 Y11.3101 
G01 X45.0198 Y11.1402 
G01 X45.1219 Y10.9874 
G01 X45.2520 Y10.8573 
G01 X45.4048 Y10.7552 
G01 X45.5747 Y10.6848 
G01 X45.7551 Y10.6490 
G01 X45.9389 Y10.6490 
G01 X46.1193 Y10.6848 
G01 X46.2892 Y10.7552 
G01 X46.4420 Y10.8573 
G01 X46.5721 Y10.9874 
G01 X46.6742 Y11.1402 
G01 X46.7446 Y11.3101 
G01 X46.7804 Y11.4905 
G01 X46.7804 Y11.6743 
G01 X46.7446 Y11.8547 
G01 X46.6742 Y12.0246 
G01 X46.5721 Y12.1774 
G01 X46.4420 Y12.3075 
G01 X46.2892 Y12.4096 
G01 X46.1193 Y12.4800 
G01 X45.9389 Y12.5158 
G01 X45.7551 Y12.5158 
G01 X45.5747 Y12.4800 
G01 X45.5517 Y12.4704 
G01 X43.1598 Y14.8623 
G01 X43.0817 Y14.9404 
G01 X42.9862 Y14.9955 
G01 X42.8796 Y15.0241 
G01 X27.4786 Y15.0241 
G01 X24.5491 Y17.9536 
G01 X24.5491 Y46.8164 
G01 X28.3676 Y50.6349 
G01 X29.5521 Y50.6349 
G01 X30.0855 Y50.1015 
G01 X30.8745 Y50.1015 
G01 X31.4325 Y50.6595 
G01 X31.4325 Y51.4485 
G01 X30.8924 Y51.9886 
G01 X31.4325 Y51.4485 
G01 X31.4325 Y50.6595 
G01 X30.8144 Y50.0413 
G01 X30.7592 Y49.9458 
G01 X30.7306 Y49.8392 
G01 X30.7306 Y49.7288 
G01 X30.7592 Y49.6222 
G01 X30.8144 Y49.5267 
G01 X30.8745 Y49.4665 
G01 X30.0855 Y49.4665 
G01 X29.5521 Y48.9331 
G01 X27.8848 Y48.9331 
G01 X27.7782 Y48.9045 
G01 X27.6827 Y48.8494 
G01 X25.1427 Y46.3094 
G01 X25.0646 Y46.2313 
G01 X25.0095 Y46.1358 
G01 X24.9809 Y46.0292 
G01 X24.9809 Y18.9948 
G01 X25.0095 Y18.8882 
G01 X25.0646 Y18.7927 
G01 X25.1427 Y18.7146 
G01 X28.3177 Y15.5396 
G01 X28.4132 Y15.4845 
G01 X28.5198 Y15.4559 
G01 X44.1494 Y15.4559 
G01 X47.7276 Y11.8777 
G01 X47.7180 Y11.8547 
G01 X47.6822 Y11.6743 
G01 X47.6822 Y11.4905 
G01 X47.7180 Y11.3101 
G01 X47.7884 Y11.1402 
G01 X47.8905 Y10.9874 
G01 X48.0206 Y10.8573 
G01 X48.1734 Y10.7552 
G01 X48.3433 Y10.6848 
G01 X48.5237 Y10.6490 
G01 X48.7075 Y10.6490 
G01 X48.8879 Y10.6848 
G01 X49.0578 Y10.7552 
G01 X49.2106 Y10.8573 
G01 X49.3407 Y10.9874 
G01 X49.4428 Y11.1402 
G01 X49.5132 Y11.3101 
G01 X49.5490 Y11.4905 
G00 Z2.5400 
G00 X44.5604 Y16.2303 
G01 Z-0.1778 F254.00 
G01 X44.5803 Y16.2104 F508.00 
G01 X44.5088 Y16.2517 
G01 X44.5604 Y16.2303 
G00 Z2.5400 
G00 X44.0118 Y11.4905 
G01 Z-0.1778 F254.00 
G01 X44.0118 Y11.6743 F508.00 
G01 X43.9760 Y11.8547 
G01 X43.9056 Y12.0246 
G01 X43.8035 Y12.1774 
G01 X43.6734 Y12.3075 
G01 X43.5206 Y12.4096 
G01 X43.3507 Y12.4800 
G01 X43.1703 Y12.5158 
G01 X42.9865 Y12.5158 
G01 X42.8061 Y12.4800 
G01 X42.7831 Y12.4704 
G01 X41.6612 Y13.5923 
G01 X41.5831 Y13.6704 
G01 X41.4876 Y13.7255 
G01 X41.3810 Y13.7541 
G01 X26.2086 Y13.7541 
G01 X23.2791 Y16.6836 
G01 X23.2791 Y48.0864 
G01 X28.3676 Y53.1749 
G01 X29.5521 Y53.1749 
G01 X30.0855 Y52.6415 
G01 X30.8745 Y52.6415 
G01 X31.4325 Y53.1995 
G01 X31.4325 Y53.9885 
G01 X30.8924 Y54.5286 
G01 X31.4325 Y53.9885 
G01 X31.4325 Y53.1995 
G01 X30.8144 Y52.5813 
G01 X30.7592 Y52.4858 
G01 X30.7306 Y52.3792 
G01 X30.7306 Y52.2688 
G01 X30.7592 Y52.1622 
G01 X30.8144 Y52.0667 
G01 X30.8745 Y52.0065 
G01 X30.0855 Y52.0065 
G01 X29.5521 Y51.4731 
G01 X28.1388 Y51.4731 
G01 X28.0322 Y51.4445 
G01 X27.9367 Y51.3894 
G01 X23.7946 Y47.2473 
G01 X23.7395 Y47.1518 
G01 X23.7109 Y47.0452 
G01 X23.7109 Y17.7248 
G01 X23.7395 Y17.6182 
G01 X23.7946 Y17.5227 
G01 X23.8727 Y17.4446 
G01 X27.0477 Y14.2696 
G01 X27.1432 Y14.2145 
G01 X27.2498 Y14.1859 
G01 X42.6508 Y14.1859 
G01 X44.6883 Y12.1484 
G01 X44.5927 Y12.2036 
G01 X44.5077 Y12.2264 
G01 X44.4861 Y12.2322 
G01 X44.3758 Y12.2322 
G01 X44.2692 Y12.2036 
G01 X44.1736 Y12.1484 
G01 X44.0956 Y12.0704 
G01 X44.0404 Y11.9748 
G01 X44.0176 Y11.8898 
G01 X44.0118 Y11.8682 
G01 X44.0118 Y11.3967 
G01 X43.8697 Y11.0536 
G01 X43.6072 Y10.7911 
G01 X43.2641 Y10.6489 
G01 X42.8927 Y10.6489 
G01 X42.5496 Y10.7911 
G01 X42.2871 Y11.0536 
G01 X42.1449 Y11.3967 
G01 X42.1449 Y11.8047 
G01 X42.1164 Y11.9113 
G01 X42.0612 Y12.0069 
G01 X41.9832 Y12.0849 
G01 X41.2359 Y12.8322 
G01 X41.1404 Y12.8873 
G01 X41.0338 Y12.9159 
G01 X25.9516 Y12.9159 
G01 X25.9000 Y12.9373 
G01 X25.9798 Y12.9159 
G01 X41.1522 Y12.9159 
G01 X42.1904 Y11.8777 
G01 X42.1808 Y11.8547 
G01 X42.1450 Y11.6743 
G01 X42.1450 Y11.4905 
G01 X42.1808 Y11.3101 
G01 X42.2512 Y11.1402 
G01 X42.3533 Y10.9874 
G01 X42.4834 Y10.8573 
G01 X42.6362 Y10.7552 
G01 X42.8061 Y10.6848 
G01 X42.9865 Y10.6490 
G01 X43.1703 Y10.6490 
G01 X43.3507 Y10.6848 
G01 X43.5206 Y10.7552 
G01 X43.6734 Y10.8573 
G01 X43.8035 Y10.9874 
G01 X43.9056 Y11.1402 
G01 X43.9760 Y11.3101 
G01 X44.0118 Y11.4905 
G00 Z2.5400 
G00 X75.8507 Y8.6457 
G01 Z-0.1778 F254.00 
G01 X75.8507 Y8.8295 F508.00 
G01 X75.8149 Y9.0099 
G01 X75.7445 Y9.1798 
G01 X75.6424 Y9.3326 
G01 X75.5123 Y9.4627 
G01 X75.3595 Y9.5648 
G01 X75.1896 Y9.6352 
G01 X75.0092 Y9.6710 
G01 X74.8254 Y9.6710 
G01 X74.6450 Y9.6352 
G01 X74.4751 Y9.5648 
G01 X74.3223 Y9.4627 
G01 X74.1922 Y9.3326 
G01 X74.0901 Y9.1798 
G01 X74.0197 Y9.0099 
G01 X73.9839 Y8.8295 
G01 X73.9839 Y8.6457 
G01 X74.0197 Y8.4653 
G01 X74.0901 Y8.2954 
G01 X74.1922 Y8.1426 
G01 X74.3223 Y8.0125 
G01 X74.4751 Y7.9104 
G01 X74.5109 Y7.8956 
G01 X74.5109 Y7.7936 
G01 X74.2465 Y7.5291 
G01 X74.2675 Y7.5502 
G01 X74.3239 Y7.6470 
G01 X74.3445 Y7.7238 
G01 X74.3525 Y7.7536 
G01 X74.3525 Y7.8639 
G01 X74.3451 Y7.8913 
G01 X74.3239 Y7.9705 
G01 X74.2687 Y8.0661 
G01 X74.2653 Y8.0695 
G01 X74.1260 Y8.2088 
G01 X73.9838 Y8.5519 
G01 X73.9838 Y8.9233 
G01 X74.1260 Y9.2664 
G01 X74.3885 Y9.5289 
G01 X74.7316 Y9.6710 
G01 X75.1030 Y9.6710 
G01 X75.4461 Y9.5289 
G01 X75.7086 Y9.2664 
G01 X75.8507 Y8.9233 
G01 X75.8507 Y8.5519 
G01 X75.7086 Y8.2088 
G01 X75.4328 Y7.9330 
G01 X75.3777 Y7.8375 
G01 X75.3491 Y7.7309 
G01 X75.3491 Y7.5366 
G01 X75.3277 Y7.4850 
G01 X75.3491 Y7.5648 
G01 X75.3491 Y7.9061 
G01 X75.3595 Y7.9104 
G01 X75.5123 Y8.0125 
G01 X75.6424 Y8.1426 
G01 X75.7445 Y8.2954 
G01 X75.8149 Y8.4653 
G01 X75.8507 Y8.6457 
G00 Z2.5400 
G00 X75.2853 Y7.3826 
G01 Z-0.1778 F254.00 
G01 X75.0694 Y7.1667 F508.00 
G01 X75.0694 Y7.1667 
G01 X74.1563 Y6.2536 
G01 X75.1873 Y7.2846 
G01 X75.2654 Y7.3627 
G01 X75.3067 Y7.4342 
G01 X75.2853 Y7.3826 
G00 Z2.5400 
G00 X38.4553 Y68.8174 
G01 Z-0.1778 F254.00 
G01 X38.4767 Y68.7658 F508.00 
G01 X38.4354 Y68.8373 
G01 X38.4553 Y68.8174 
G00 Z2.5400 
G00 X34.1464 Y73.1263 
G01 Z-0.1778 F254.00 
G01 X34.1663 Y73.1064 F508.00 
G01 X34.0948 Y73.1477 
G01 X34.1464 Y73.1263 
G00 Z2.5400 
G00 X16.0909 Y13.8866 
G01 Z-0.1778 F254.00 
G01 X16.0909 Y63.5834 F508.00 
G01 X16.1123 Y63.6350 
G01 X16.0909 Y63.5552 
G01 X16.0909 Y13.9148 
G01 X16.1123 Y13.8350 
G01 X16.0909 Y13.8866 
G00 Z2.5400 
G00 X76.2834 Y4.6609 
G01 Z-0.1778 F254.00 
G01 X25.3166 Y4.6609 F508.00 
G01 X25.2650 Y4.6823 
G01 X25.3448 Y4.6609 
G01 X76.2552 Y4.6609 
G01 X76.3350 Y4.6823 
G01 X76.2834 Y4.6609 
G00 Z2.5400 
G00 X79.1591 Y10.2434 
G01 Z-0.1778 F254.00 
G01 X79.1591 Y7.5366 F508.00 
G01 X79.1377 Y7.4850 
G01 X79.1591 Y7.5648 
G01 X79.1591 Y10.2152 
G01 X79.1377 Y10.2950 
G01 X79.1591 Y10.2434 
G00 Z2.5400 
G00 X79.0953 Y10.3974 
G01 Z-0.1778 F254.00 
G01 X79.1167 Y10.3458 F508.00 
G01 X79.0754 Y10.4173 
G01 X79.0953 Y10.3974 
G00 Z2.5400 
G00 X38.5191 Y68.5248 
G01 Z-0.1778 F254.00 
G01 X38.5191 Y68.6352 F508.00 
G01 X38.4977 Y68.7150 
G01 X38.5191 Y68.6634 
G01 X38.5191 Y34.2066 
G01 X38.4977 Y34.1550 
G01 X38.5191 Y34.2348 
G01 X38.5191 Y68.5248 
G00 Z2.5400 
G00 X74.0230 Y6.0800 
G01 Z-0.1778 F254.00 
G01 X73.9948 Y5.9746 F508.00 
G01 X73.9945 Y5.9734 
G01 X73.9945 Y5.8630 
G01 X74.0230 Y5.7564 
G01 X74.0782 Y5.6609 
G01 X74.1563 Y5.5828 
G01 X74.2518 Y5.5277 
G01 X74.3572 Y5.4994 
G01 X75.9080 Y5.4991 
G01 X76.0146 Y5.5277 
G01 X76.1101 Y5.5828 
G01 X78.2372 Y7.7099 
G01 X78.2923 Y7.8054 
G01 X78.3209 Y7.9120 
G01 X78.3209 Y9.8680 
G01 X78.2923 Y9.9746 
G01 X78.2372 Y10.0701 
G01 X78.1591 Y10.1482 
G01 X77.5087 Y10.7986 
G01 X77.4318 Y10.8755 
G01 X77.3511 Y10.9226 
G01 X77.3351 Y10.9318 
G01 X77.2868 Y10.9448 
G01 X77.2285 Y10.9604 
G01 X77.1181 Y10.9604 
G01 X77.0622 Y10.9454 
G01 X77.0115 Y10.9318 
G01 X76.9980 Y10.9240 
G01 X76.9160 Y10.8767 
G01 X76.9079 Y10.8686 
G01 X76.8304 Y10.7911 
G01 X76.4873 Y10.6489 
G01 X76.1159 Y10.6489 
G01 X75.7728 Y10.7911 
G01 X75.5103 Y11.0536 
G01 X75.3681 Y11.3967 
G01 X75.3681 Y11.8682 
G01 X75.3396 Y11.9748 
G01 X75.2844 Y12.0704 
G01 X75.2064 Y12.1484 
G01 X75.1108 Y12.2036 
G01 X75.0042 Y12.2322 
G01 X74.8939 Y12.2322 
G01 X74.7873 Y12.2036 
G01 X74.6917 Y12.1484 
G01 X75.4592 Y12.9159 
G01 X84.2562 Y12.9159 
G01 X84.3360 Y12.9373 
G01 X84.2844 Y12.9159 
G01 X77.2448 Y12.9159 
G01 X77.1382 Y12.8873 
G01 X77.0427 Y12.8322 
G01 X76.9646 Y12.7541 
G01 X76.9094 Y12.6586 
G01 X76.8809 Y12.5520 
G01 X76.8809 Y12.4416 
G01 X76.9094 Y12.3350 
G01 X76.9646 Y12.2395 
G01 X76.8966 Y12.3075 
G01 X76.7438 Y12.4096 
G01 X76.5739 Y12.4800 
G01 X76.3935 Y12.5158 
G01 X76.2097 Y12.5158 
G01 X76.0293 Y12.4800 
G01 X75.8594 Y12.4096 
G01 X75.7066 Y12.3075 
G01 X75.5765 Y12.1774 
G01 X75.4744 Y12.0246 
G01 X75.4040 Y11.8547 
G01 X75.3681 Y11.6743 
G01 X75.3681 Y11.4905 
G01 X75.4040 Y11.3101 
G01 X75.4744 Y11.1402 
G01 X75.5765 Y10.9874 
G01 X75.7066 Y10.8573 
G01 X75.8594 Y10.7552 
G01 X76.0293 Y10.6848 
G01 X76.2097 Y10.6490 
G01 X76.3935 Y10.6490 
G01 X76.5739 Y10.6848 
G01 X76.7438 Y10.7552 
G01 X76.8966 Y10.8573 
G01 X77.0267 Y10.9874 
G01 X77.1288 Y11.1402 
G01 X77.1384 Y11.1633 
G01 X77.1440 Y11.1633 
G01 X78.3209 Y9.9864 
G01 X78.3209 Y7.7936 
G01 X76.0264 Y5.4991 
G01 X25.5736 Y5.4991 
G01 X16.9291 Y14.1436 
G01 X16.9291 Y63.3264 
G01 X25.9546 Y72.3519 
G01 X33.7354 Y72.3519 
G01 X37.6809 Y68.4064 
G01 X37.6809 Y34.4636 
G01 X30.8398 Y27.6225 
G01 X30.0855 Y27.6225 
G01 X29.5275 Y27.0645 
G01 X29.5275 Y26.2755 
G01 X30.0855 Y25.7175 
G01 X30.8745 Y25.7175 
G01 X31.4325 Y26.2755 
G01 X31.4325 Y27.0298 
G01 X31.5162 Y27.1135 
G01 X31.4611 Y27.0180 
G01 X31.4325 Y26.9114 
G01 X31.4325 Y26.2755 
G01 X30.8924 Y25.7354 
G01 X30.8144 Y25.6573 
G01 X30.7592 Y25.5618 
G01 X30.7310 Y25.4564 
G01 X30.7306 Y25.3448 
G01 X30.7592 Y25.2382 
G01 X30.8144 Y25.1427 
G01 X31.4325 Y24.5245 
G01 X31.4325 Y23.7355 
G01 X30.8924 Y23.1954 
G01 X30.8144 Y23.1173 
G01 X30.7592 Y23.0218 
G01 X30.7310 Y22.9164 
G01 X30.7306 Y22.8048 
G01 X30.7592 Y22.6982 
G01 X30.8144 Y22.6027 
G01 X31.4325 Y21.9845 
G01 X31.4325 Y21.1955 
G01 X30.8745 Y20.6375 
G01 X30.4418 Y20.6375 
G01 X30.4145 Y20.6302 
G01 X30.3352 Y20.6089 
G01 X30.2397 Y20.5538 
G01 X30.1616 Y20.4757 
G01 X30.1064 Y20.3802 
G01 X30.0779 Y20.2736 
G01 X30.0779 Y20.1632 
G01 X30.0852 Y20.1359 
G01 X30.1064 Y20.0566 
G01 X30.1616 Y19.9611 
G01 X28.3591 Y21.7636 
G01 X28.3591 Y39.8314 
G01 X29.3836 Y40.8559 
G01 X31.5512 Y40.8559 
G01 X31.6578 Y40.8845 
G01 X31.7533 Y40.9396 
G01 X33.2773 Y42.4636 
G01 X33.3554 Y42.5417 
G01 X33.4105 Y42.6372 
G01 X33.4391 Y42.7438 
G01 X33.4391 Y44.5052 
G01 X33.4105 Y44.6118 
G01 X33.3554 Y44.7073 
G01 X33.1945 Y44.8682 
G01 X33.2888 Y44.8137 
G01 X33.3966 Y44.7845 
G01 X33.5070 Y44.7845 
G01 X33.6136 Y44.8130 
G01 X33.7091 Y44.8682 
G01 X33.7872 Y44.9462 
G01 X33.8416 Y45.0406 
G01 X33.8709 Y45.1484 
G01 X33.8709 Y61.9380 
G01 X33.8423 Y62.0446 
G01 X33.7872 Y62.1401 
G01 X33.7091 Y62.2182 
G01 X32.9301 Y62.9972 
G01 X32.8346 Y63.0523 
G01 X32.7280 Y63.0809 
G01 X29.5020 Y63.0809 
G01 X29.3954 Y63.0523 
G01 X29.2999 Y62.9972 
G01 X29.2218 Y62.9191 
G01 X23.7184 Y57.4157 
G01 X23.6633 Y57.3202 
G01 X23.6347 Y57.2136 
G01 X23.6347 Y56.8291 
G01 X23.1809 Y56.3753 
G01 X22.5391 Y56.3753 
G01 X22.0853 Y56.8291 
G01 X22.0853 Y57.4709 
G01 X22.5391 Y57.9247 
G01 X22.9236 Y57.9247 
G01 X23.0302 Y57.9533 
G01 X23.1257 Y58.0084 
G01 X23.2038 Y58.0865 
G01 X28.7137 Y63.5964 
G01 X23.0420 Y57.9247 
G01 X22.5391 Y57.9247 
G01 X22.0853 Y57.4709 
G01 X22.0853 Y56.8291 
G01 X22.5391 Y56.3753 
G01 X23.1809 Y56.3753 
G01 X23.6347 Y56.8291 
G01 X23.6347 Y57.3320 
G01 X29.3836 Y63.0809 
G01 X32.8464 Y63.0809 
G01 X33.8709 Y62.0564 
G01 X33.8709 Y38.2736 
G01 X30.8398 Y35.2425 
G01 X30.0855 Y35.2425 
G01 X29.5275 Y34.6845 
G01 X29.5275 Y33.8955 
G01 X30.0855 Y33.3375 
G01 X30.8745 Y33.3375 
G01 X31.4325 Y33.8955 
G01 X31.4325 Y34.6498 
G01 X34.6254 Y37.8427 
G01 X34.6805 Y37.9382 
G01 X34.7091 Y38.0448 
G01 X34.7091 Y62.2852 
G01 X34.6805 Y62.3918 
G01 X34.6254 Y62.4873 
G01 X34.5473 Y62.5654 
G01 X33.2773 Y63.8354 
G01 X33.1818 Y63.8905 
G01 X33.0752 Y63.9191 
G01 X29.1548 Y63.9191 
G01 X29.0482 Y63.8905 
G01 X28.9527 Y63.8354 
G01 X28.7918 Y63.6745 
G01 X28.8462 Y63.7688 
G01 X28.8755 Y63.8766 
G01 X28.8755 Y63.9870 
G01 X28.8469 Y64.0936 
G01 X28.7918 Y64.1891 
G01 X28.7137 Y64.2672 
G01 X28.6194 Y64.3216 
G01 X28.5116 Y64.3509 
G01 X26.9620 Y64.3509 
G01 X26.8554 Y64.3223 
G01 X26.7599 Y64.2672 
G01 X26.6818 Y64.1891 
G01 X23.7184 Y61.2257 
G01 X23.6633 Y61.1302 
G01 X23.6347 Y61.0236 
G01 X23.6347 Y60.6391 
G01 X23.1809 Y60.1853 
G01 X22.5391 Y60.1853 
G01 X22.0853 Y60.6391 
G01 X22.0853 Y61.2809 
G01 X22.5391 Y61.7347 
G01 X22.9236 Y61.7347 
G01 X23.0302 Y61.7633 
G01 X23.1257 Y61.8184 
G01 X23.2038 Y61.8965 
G01 X26.1737 Y64.8664 
G01 X23.0420 Y61.7347 
G01 X22.5391 Y61.7347 
G01 X22.0853 Y61.2809 
G01 X22.0853 Y60.6391 
G01 X22.5391 Y60.1853 
G01 X23.1809 Y60.1853 
G01 X23.6347 Y60.6391 
G01 X23.6347 Y61.1420 
G01 X26.8436 Y64.3509 
G01 X34.1164 Y64.3509 
G01 X35.1409 Y63.3264 
G01 X35.1409 Y37.0036 
G01 X30.8398 Y32.7025 
G01 X30.0855 Y32.7025 
G01 X29.5275 Y32.1445 
G01 X29.5275 Y31.3555 
G01 X30.0855 Y30.7975 
G01 X30.8745 Y30.7975 
G01 X31.4325 Y31.3555 
G01 X31.4325 Y32.1098 
G01 X35.8954 Y36.5727 
G01 X35.9505 Y36.6682 
G01 X35.9791 Y36.7748 
G01 X35.9791 Y63.5552 
G01 X35.9505 Y63.6618 
G01 X35.8954 Y63.7573 
G01 X35.8173 Y63.8354 
G01 X34.5473 Y65.1054 
G01 X34.4518 Y65.1605 
G01 X34.3452 Y65.1891 
G01 X26.6148 Y65.1891 
G01 X26.5082 Y65.1605 
G01 X26.4127 Y65.1054 
G01 X26.3346 Y65.0273 
G01 X26.2518 Y64.9445 
G01 X26.3062 Y65.0388 
G01 X26.3355 Y65.1466 
G01 X26.3355 Y65.2570 
G01 X26.3070 Y65.3636 
G01 X26.2518 Y65.4591 
G01 X26.1737 Y65.5372 
G01 X26.0794 Y65.5916 
G01 X25.9716 Y65.6209 
G01 X23.1520 Y65.6209 
G01 X23.0454 Y65.5923 
G01 X22.9499 Y65.5372 
G01 X22.8718 Y65.4591 
G01 X19.5528 Y62.1401 
G01 X19.4977 Y62.0446 
G01 X19.4691 Y61.9380 
G01 X19.4691 Y14.2620 
G01 X19.4977 Y14.1554 
G01 X19.5528 Y14.0599 
G01 X19.4691 Y14.1436 
G01 X19.4691 Y62.0564 
G01 X23.0336 Y65.6209 
G01 X35.3864 Y65.6209 
G01 X36.4109 Y64.5964 
G01 X36.4109 Y35.7336 
G01 X30.8398 Y30.1625 
G01 X30.0855 Y30.1625 
G01 X29.5275 Y29.6045 
G01 X29.5275 Y28.8155 
G01 X30.0855 Y28.2575 
G01 X30.8745 Y28.2575 
G01 X31.4325 Y28.8155 
G01 X31.4325 Y29.5698 
G01 X37.0873 Y35.2246 
G01 X37.1654 Y35.3027 
G01 X37.2205 Y35.3982 
G01 X37.2491 Y35.5048 
G01 X37.2491 Y64.8252 
G01 X37.2205 Y64.9318 
G01 X37.1654 Y65.0273 
G01 X35.8954 Y66.2973 
G01 X35.8173 Y66.3754 
G01 X35.7218 Y66.4305 
G01 X35.6152 Y66.4591 
G01 X22.8048 Y66.4591 
G01 X22.6982 Y66.4305 
G01 X22.6027 Y66.3754 
G01 X18.7927 Y62.5654 
G01 X18.7146 Y62.4873 
G01 X18.6595 Y62.3918 
G01 X18.6309 Y62.2852 
G01 X18.6309 Y13.9148 
G01 X18.6595 Y13.8082 
G01 X18.7146 Y13.7127 
G01 X26.3346 Y6.0927 
G01 X26.4127 Y6.0146 
G01 X26.5082 Y5.9595 
G01 X26.6148 Y5.9309 
G01 X73.7152 Y5.9309 
G01 X73.8218 Y5.9595 
G01 X73.9173 Y6.0146 
G01 X74.0782 Y6.1755 
G01 X74.0230 Y6.0800 
G00 Z2.5400 
G00 X31.4325 Y38.9755 
G01 Z-0.1778 F254.00 
G01 X31.4325 Y39.7645 F508.00 
G01 X30.8745 Y40.3225 
G01 X30.0855 Y40.3225 
G01 X29.5275 Y39.7645 
G01 X29.5275 Y38.9755 
G01 X30.0855 Y38.4175 
G01 X30.8745 Y38.4175 
G01 X31.4325 Y38.9755 
G00 Z2.5400 
G00 X31.4325 Y36.4355 
G01 Z-0.1778 F254.00 
G01 X31.4325 Y37.2245 F508.00 
G01 X30.8745 Y37.7825 
G01 X30.0855 Y37.7825 
G01 X29.5275 Y37.2245 
G01 X29.5275 Y36.4355 
G01 X30.0855 Y35.8775 
G01 X30.8745 Y35.8775 
G01 X31.4325 Y36.4355 
G00 Z2.5400 
G00 X31.4325 Y21.1955 
G01 Z-0.1778 F254.00 
G01 X31.4325 Y21.9845 F508.00 
G01 X30.8745 Y22.5425 
G01 X30.0855 Y22.5425 
G01 X29.5275 Y21.9845 
G01 X29.5275 Y21.1955 
G01 X30.0855 Y20.6375 
G01 X30.8745 Y20.6375 
G01 X31.4325 Y21.1955 
G00 Z2.5400 
G00 X31.4325 Y23.7355 
G01 Z-0.1778 F254.00 
G01 X31.4325 Y24.5245 F508.00 
G01 X30.8745 Y25.0825 
G01 X30.0855 Y25.0825 
G01 X29.5275 Y24.5245 
G01 X29.5275 Y23.7355 
G01 X30.0855 Y23.1775 
G01 X30.8745 Y23.1775 
G01 X31.4325 Y23.7355 
G00 Z2.5400 
G00 X16.2527 Y63.8354 
G01 Z-0.1778 F254.00 
G01 X16.1746 Y63.7573 F508.00 
G01 X16.1333 Y63.6857 
G01 X16.1547 Y63.7374 
G01 X25.5436 Y73.1263 
G01 X25.5952 Y73.1477 
G01 X25.5237 Y73.1064 
G01 X25.4456 Y73.0283 
G01 X16.2527 Y63.8354 
G00 Z2.5400 
G00 X77.1288 Y12.0246 
G01 Z-0.1778 F254.00 
G01 X77.0267 Y12.1774 F508.00 
G01 X77.0427 Y12.1614 
G01 X77.1189 Y12.0852 
G01 X77.2144 Y12.0301 
G01 X77.3210 Y12.0015 
G01 X77.4010 Y12.0015 
G01 X77.4526 Y11.9801 
G01 X77.3728 Y12.0015 
G01 X77.1384 Y12.0015 
G01 X77.1288 Y12.0246 
G00 Z2.5400 
G00 X77.5550 Y11.9377 
G01 Z-0.1778 F254.00 
G01 X77.5749 Y11.9178 F508.00 
G01 X77.5034 Y11.9591 
G01 X77.5550 Y11.9377 
G00 Z2.5400 
G00 X79.0953 Y7.3826 
G01 Z-0.1778 F254.00 
G01 X78.8794 Y7.1667 F508.00 
G01 X76.4374 Y4.7247 
G01 X76.3857 Y4.7033 
G01 X76.4573 Y4.7446 
G01 X76.5354 Y4.8227 
G01 X78.9973 Y7.2846 
G01 X79.0754 Y7.3627 
G01 X79.1167 Y7.4342 
G01 X79.0953 Y7.3826 
G00 Z2.5400 
G00 X25.1626 Y4.7247 
G01 Z-0.1778 F254.00 
G01 X24.9467 Y4.9406 F508.00 
G01 X16.1547 Y13.7326 
G01 X16.1333 Y13.7843 
G01 X16.1746 Y13.7127 
G01 X25.0646 Y4.8227 
G01 X25.1427 Y4.7446 
G01 X25.2143 Y4.7033 
G01 X25.1626 Y4.7247 
G00 Z2.5400 
G00 X25.6976 Y73.1901 
G01 Z-0.1778 F254.00 
G01 X33.9924 Y73.1901 F508.00 
G01 X34.0440 Y73.1687 
G01 X33.9642 Y73.1901 
G01 X25.7258 Y73.1901 
G01 X25.6460 Y73.1687 
G01 X25.6976 Y73.1901 
G00 Z2.5400 
G00 X38.4553 Y34.0526 
G01 Z-0.1778 F254.00 
G01 X38.4354 Y34.0327 F508.00 
G01 X38.4767 Y34.1042 
G01 X38.4553 Y34.0526 
G00 Z2.5400 
G00 X26.8436 Y6.7691 
G01 Z-0.1778 F254.00 
G01 X26.7599 Y6.8528 F508.00 
G01 X26.8554 Y6.7977 
G01 X26.9620 Y6.7691 
G01 X73.3680 Y6.7691 
G01 X73.4746 Y6.7977 
G01 X73.5701 Y6.8528 
G01 X73.6482 Y6.9309 
G01 X74.1907 Y7.4734 
G01 X73.4864 Y6.7691 
G01 X26.8436 Y6.7691 
G00 Z2.5400 
G00 X73.0821 Y8.6457 
G01 Z-0.1778 F254.00 
G01 X73.0821 Y8.8295 F508.00 
G01 X73.0463 Y9.0099 
G01 X72.9759 Y9.1798 
G01 X72.8738 Y9.3326 
G01 X72.7437 Y9.4627 
G01 X72.5909 Y9.5648 
G01 X72.4210 Y9.6352 
G01 X72.2406 Y9.6710 
G01 X72.0568 Y9.6710 
G01 X71.8764 Y9.6352 
G01 X71.8534 Y9.6256 
G01 X71.7242 Y9.7548 
G01 X71.8198 Y9.6996 
G01 X71.9218 Y9.6723 
G01 X71.9264 Y9.6710 
G01 X72.3344 Y9.6710 
G01 X72.6775 Y9.5289 
G01 X72.9400 Y9.2664 
G01 X73.0821 Y8.9233 
G01 X73.0821 Y8.5519 
G01 X72.9400 Y8.2088 
G01 X72.6775 Y7.9463 
G01 X72.3344 Y7.8041 
G01 X71.9630 Y7.8041 
G01 X71.6199 Y7.9463 
G01 X71.3574 Y8.2088 
G01 X71.2152 Y8.5519 
G01 X71.2152 Y8.9599 
G01 X71.1920 Y9.0468 
G01 X71.1867 Y9.0665 
G01 X71.1456 Y9.1377 
G01 X71.1315 Y9.1621 
G01 X71.0680 Y9.2256 
G01 X70.9911 Y9.3025 
G01 X70.8944 Y9.3588 
G01 X70.8313 Y9.3757 
G01 X70.7878 Y9.3874 
G01 X70.6775 Y9.3874 
G01 X70.5930 Y9.3647 
G01 X70.5709 Y9.3588 
G01 X70.5021 Y9.3191 
G01 X70.4753 Y9.3036 
G01 X70.3985 Y9.2268 
G01 X70.3421 Y9.1300 
G01 X70.3252 Y9.0669 
G01 X70.3135 Y9.0234 
G01 X70.3135 Y8.5519 
G01 X70.1714 Y8.2088 
G01 X69.9089 Y7.9463 
G01 X69.5658 Y7.8041 
G01 X69.1944 Y7.8041 
G01 X68.8513 Y7.9463 
G01 X68.5888 Y8.2088 
G01 X68.4466 Y8.5519 
G01 X68.4466 Y8.9233 
G01 X68.5348 Y9.1360 
G01 X68.4825 Y9.0099 
G01 X68.4467 Y8.8295 
G01 X68.4467 Y8.6457 
G01 X68.4825 Y8.4653 
G01 X68.5529 Y8.2954 
G01 X68.6550 Y8.1426 
G01 X68.7851 Y8.0125 
G01 X68.9379 Y7.9104 
G01 X69.1078 Y7.8400 
G01 X69.2882 Y7.8042 
G01 X69.4720 Y7.8042 
G01 X69.6524 Y7.8400 
G01 X69.8223 Y7.9104 
G01 X69.9751 Y8.0125 
G01 X70.1052 Y8.1426 
G01 X70.2073 Y8.2954 
G01 X70.2777 Y8.4653 
G01 X70.3135 Y8.6457 
G01 X70.3135 Y8.8295 
G01 X70.2777 Y9.0099 
G01 X70.2073 Y9.1798 
G01 X70.1052 Y9.3326 
G01 X69.9751 Y9.4627 
G01 X69.8223 Y9.5648 
G01 X69.6524 Y9.6352 
G01 X69.4720 Y9.6710 
G01 X69.2882 Y9.6710 
G01 X69.1078 Y9.6352 
G01 X68.9379 Y9.5648 
G01 X68.7851 Y9.4627 
G01 X68.6550 Y9.3326 
G01 X68.5546 Y9.1823 
G01 X68.5558 Y9.1868 
G01 X68.5664 Y9.2124 
G01 X68.5700 Y9.2399 
G01 X68.5772 Y9.2666 
G01 X68.5772 Y9.2943 
G01 X68.5808 Y9.3218 
G01 X68.5772 Y9.3493 
G01 X68.5772 Y9.3770 
G01 X68.5700 Y9.4037 
G01 X68.5664 Y9.4312 
G01 X68.5558 Y9.4568 
G01 X68.5486 Y9.4836 
G01 X68.5348 Y9.5076 
G01 X68.5242 Y9.5332 
G01 X68.5073 Y9.5551 
G01 X68.4935 Y9.5791 
G01 X68.4739 Y9.5987 
G01 X68.4570 Y9.6207 
G01 X68.4350 Y9.6376 
G01 X68.4154 Y9.6572 
G01 X68.3914 Y9.6710 
G01 X68.3695 Y9.6879 
G01 X68.3439 Y9.6985 
G01 X68.3199 Y9.7123 
G01 X68.2931 Y9.7195 
G01 X68.2675 Y9.7301 
G01 X68.2400 Y9.7337 
G01 X68.2133 Y9.7409 
G01 X68.1856 Y9.7409 
G01 X70.5527 Y9.7409 
G01 X71.2607 Y9.0329 
G01 X71.2511 Y9.0099 
G01 X71.2152 Y8.8295 
G01 X71.2152 Y8.6457 
G01 X71.2511 Y8.4653 
G01 X71.3215 Y8.2954 
G01 X71.4236 Y8.1426 
G01 X71.5537 Y8.0125 
G01 X71.7065 Y7.9104 
G01 X71.8764 Y7.8400 
G01 X72.0568 Y7.8042 
G01 X72.2406 Y7.8042 
G01 X72.4210 Y7.8400 
G01 X72.5909 Y7.9104 
G01 X72.7437 Y8.0125 
G01 X72.8738 Y8.1426 
G01 X72.9759 Y8.2954 
G01 X73.0463 Y8.4653 
G01 X73.0821 Y8.6457 
G00 Z2.5400 
G00 X68.1306 Y9.7409 
G01 Z-0.1778 F254.00 
G01 X67.8610 Y9.7409 F508.00 
G01 X67.8609 Y9.7409 
G01 X68.1307 Y9.7409 
G00 Z2.5400 
G00 X67.8060 Y9.7409 
G01 Z-0.1778 F254.00 
G01 X67.7783 Y9.7409 F508.00 
G01 X67.7516 Y9.7337 
G01 X67.7241 Y9.7301 
G01 X67.6985 Y9.7195 
G01 X67.6717 Y9.7123 
G01 X67.6477 Y9.6985 
G01 X67.6221 Y9.6879 
G01 X67.6002 Y9.6710 
G01 X67.5762 Y9.6572 
G01 X67.5566 Y9.6376 
G01 X67.5346 Y9.6207 
G01 X67.5177 Y9.5987 
G01 X67.4981 Y9.5791 
G01 X67.4843 Y9.5551 
G01 X67.4674 Y9.5332 
G01 X67.4568 Y9.5076 
G01 X67.4430 Y9.4836 
G01 X67.4358 Y9.4568 
G01 X67.4252 Y9.4312 
G01 X67.4216 Y9.4037 
G01 X67.4144 Y9.3770 
G01 X67.4144 Y9.3493 
G01 X67.4108 Y9.3218 
G01 X67.4144 Y9.2943 
G01 X67.4144 Y9.2666 
G01 X67.4216 Y9.2399 
G01 X67.4252 Y9.2124 
G01 X67.4358 Y9.1868 
G01 X67.4370 Y9.1823 
G01 X67.3366 Y9.3326 
G01 X67.2065 Y9.4627 
G01 X67.0537 Y9.5648 
G01 X66.8838 Y9.6352 
G01 X66.7034 Y9.6710 
G01 X66.5196 Y9.6710 
G01 X66.3392 Y9.6352 
G01 X66.1693 Y9.5648 
G01 X66.0165 Y9.4627 
G01 X65.8864 Y9.3326 
G01 X65.7860 Y9.1823 
G01 X65.7872 Y9.1868 
G01 X65.7978 Y9.2124 
G01 X65.8014 Y9.2399 
G01 X65.8086 Y9.2666 
G01 X65.8086 Y9.2943 
G01 X65.8122 Y9.3218 
G01 X65.8086 Y9.3493 
G01 X65.8086 Y9.3770 
G01 X65.8014 Y9.4037 
G01 X65.7978 Y9.4312 
G01 X65.7872 Y9.4568 
G01 X65.7800 Y9.4836 
G01 X65.7662 Y9.5076 
G01 X65.7556 Y9.5332 
G01 X65.7387 Y9.5551 
G01 X65.7249 Y9.5791 
G01 X65.7053 Y9.5987 
G01 X65.6884 Y9.6207 
G01 X65.6664 Y9.6376 
G01 X65.6468 Y9.6572 
G01 X65.6228 Y9.6710 
G01 X65.6009 Y9.6879 
G01 X65.5753 Y9.6985 
G01 X65.5513 Y9.7123 
G01 X65.5245 Y9.7195 
G01 X65.4989 Y9.7301 
G01 X65.4714 Y9.7337 
G01 X65.4447 Y9.7409 
G01 X65.4170 Y9.7409 
G01 X67.8061 Y9.7409 
G00 Z2.5400 
G00 X65.3620 Y9.7409 
G01 Z-0.1778 F254.00 
G01 X65.1027 Y9.7409 F508.00 
G01 X65.1026 Y9.7409 
G01 X65.3621 Y9.7409 
G00 Z2.5400 
G00 X65.0477 Y9.7409 
G01 Z-0.1778 F254.00 
G01 X65.0366 Y9.7409 F508.00 
G01 X64.9938 Y9.7294 
G01 X64.9506 Y9.7203 
G01 X64.9407 Y9.7152 
G01 X64.9300 Y9.7123 
G01 X64.8917 Y9.6902 
G01 X64.8523 Y9.6702 
G01 X64.8440 Y9.6627 
G01 X64.8344 Y9.6572 
G01 X64.8031 Y9.6259 
G01 X64.7703 Y9.5963 
G01 X64.7643 Y9.5870 
G01 X64.7564 Y9.5791 
G01 X64.7343 Y9.5408 
G01 X64.7102 Y9.5038 
G01 X64.7068 Y9.4932 
G01 X64.7012 Y9.4836 
G01 X64.6898 Y9.4408 
G01 X64.6761 Y9.3988 
G01 X64.6755 Y9.3877 
G01 X64.6726 Y9.3770 
G01 X64.6726 Y9.3328 
G01 X64.6703 Y9.2886 
G01 X64.6726 Y9.2778 
G01 X64.6726 Y9.2666 
G01 X64.6841 Y9.2239 
G01 X64.6933 Y9.1807 
G01 X64.6983 Y9.1708 
G01 X64.7012 Y9.1600 
G01 X64.7031 Y9.1567 
G01 X64.6797 Y9.1567 
G01 X64.6701 Y9.1798 
G01 X64.5680 Y9.3326 
G01 X64.4379 Y9.4627 
G01 X64.2851 Y9.5648 
G01 X64.1152 Y9.6352 
G01 X63.9348 Y9.6710 
G01 X63.7510 Y9.6710 
G01 X63.5706 Y9.6352 
G01 X63.4007 Y9.5648 
G01 X63.2479 Y9.4627 
G01 X63.1178 Y9.3326 
G01 X63.0157 Y9.1798 
G01 X63.0061 Y9.1567 
G01 X62.9827 Y9.1567 
G01 X62.9846 Y9.1600 
G01 X62.9875 Y9.1708 
G01 X62.9925 Y9.1807 
G01 X63.0017 Y9.2239 
G01 X63.0132 Y9.2666 
G01 X63.0132 Y9.2778 
G01 X63.0155 Y9.2886 
G01 X63.0132 Y9.3328 
G01 X63.0132 Y9.3770 
G01 X63.0103 Y9.3877 
G01 X63.0097 Y9.3988 
G01 X62.9960 Y9.4408 
G01 X62.9846 Y9.4836 
G01 X62.9790 Y9.4932 
G01 X62.9756 Y9.5038 
G01 X62.9515 Y9.5408 
G01 X62.9294 Y9.5791 
G01 X62.9215 Y9.5870 
G01 X62.9155 Y9.5963 
G01 X62.8827 Y9.6259 
G01 X62.8514 Y9.6572 
G01 X62.8417 Y9.6627 
G01 X62.8335 Y9.6702 
G01 X62.7941 Y9.6902 
G01 X62.7558 Y9.7123 
G01 X62.7451 Y9.7152 
G01 X62.7352 Y9.7203 
G01 X62.6919 Y9.7294 
G01 X62.6492 Y9.7409 
G01 X62.6381 Y9.7409 
G01 X65.0477 Y9.7409 
G00 Z2.5400 
G00 X62.5831 Y9.7409 
G01 Z-0.1778 F254.00 
G01 X62.3341 Y9.7409 F508.00 
G01 X62.3340 Y9.7409 
G01 X62.5832 Y9.7409 
G00 Z2.5400 
G00 X62.2791 Y9.7409 
G01 Z-0.1778 F254.00 
G01 X62.2680 Y9.7409 F508.00 
G01 X62.2252 Y9.7294 
G01 X62.1820 Y9.7203 
G01 X62.1721 Y9.7152 
G01 X62.1614 Y9.7123 
G01 X62.1231 Y9.6902 
G01 X62.0837 Y9.6702 
G01 X62.0754 Y9.6627 
G01 X62.0658 Y9.6572 
G01 X62.0345 Y9.6259 
G01 X62.0017 Y9.5963 
G01 X61.9957 Y9.5870 
G01 X61.9878 Y9.5791 
G01 X61.9657 Y9.5408 
G01 X61.9416 Y9.5038 
G01 X61.9382 Y9.4932 
G01 X61.9326 Y9.4836 
G01 X61.9212 Y9.4408 
G01 X61.9075 Y9.3988 
G01 X61.9069 Y9.3877 
G01 X61.9040 Y9.3770 
G01 X61.9040 Y9.3328 
G01 X61.9017 Y9.2886 
G01 X61.9040 Y9.2778 
G01 X61.9040 Y9.2666 
G01 X61.9155 Y9.2239 
G01 X61.9247 Y9.1807 
G01 X61.9297 Y9.1708 
G01 X61.9326 Y9.1600 
G01 X61.9345 Y9.1567 
G01 X61.9111 Y9.1567 
G01 X61.9015 Y9.1798 
G01 X61.7994 Y9.3326 
G01 X61.6693 Y9.4627 
G01 X61.5165 Y9.5648 
G01 X61.3466 Y9.6352 
G01 X61.1662 Y9.6710 
G01 X60.9824 Y9.6710 
G01 X60.8020 Y9.6352 
G01 X60.6321 Y9.5648 
G01 X60.4793 Y9.4627 
G01 X60.3492 Y9.3326 
G01 X60.2471 Y9.1798 
G01 X60.2375 Y9.1567 
G01 X60.2141 Y9.1567 
G01 X60.2160 Y9.1600 
G01 X60.2189 Y9.1708 
G01 X60.2239 Y9.1807 
G01 X60.2331 Y9.2239 
G01 X60.2446 Y9.2666 
G01 X60.2446 Y9.2778 
G01 X60.2469 Y9.2886 
G01 X60.2446 Y9.3328 
G01 X60.2446 Y9.3770 
G01 X60.2417 Y9.3877 
G01 X60.2411 Y9.3988 
G01 X60.2274 Y9.4408 
G01 X60.2160 Y9.4836 
G01 X60.2104 Y9.4932 
G01 X60.2070 Y9.5038 
G01 X60.1829 Y9.5408 
G01 X60.1608 Y9.5791 
G01 X60.1529 Y9.5870 
G01 X60.1469 Y9.5963 
G01 X60.1141 Y9.6259 
G01 X60.0828 Y9.6572 
G01 X60.0731 Y9.6627 
G01 X60.0649 Y9.6702 
G01 X60.0255 Y9.6902 
G01 X59.9872 Y9.7123 
G01 X59.9765 Y9.7152 
G01 X59.9666 Y9.7203 
G01 X59.9233 Y9.7294 
G01 X59.8806 Y9.7409 
G01 X59.8695 Y9.7409 
G01 X62.2791 Y9.7409 
G00 Z2.5400 
G00 X59.8145 Y9.7409 
G01 Z-0.1778 F254.00 
G01 X59.5655 Y9.7409 F508.00 
G01 X59.5654 Y9.7409 
G01 X59.8146 Y9.7409 
G00 Z2.5400 
G00 X59.5105 Y9.7409 
G01 Z-0.1778 F254.00 
G01 X59.4994 Y9.7409 F508.00 
G01 X59.4566 Y9.7294 
G01 X59.4134 Y9.7203 
G01 X59.4035 Y9.7152 
G01 X59.3928 Y9.7123 
G01 X59.3545 Y9.6902 
G01 X59.3151 Y9.6702 
G01 X59.3068 Y9.6627 
G01 X59.2972 Y9.6572 
G01 X59.2659 Y9.6259 
G01 X59.2331 Y9.5963 
G01 X59.2271 Y9.5870 
G01 X59.2192 Y9.5791 
G01 X59.1971 Y9.5408 
G01 X59.1730 Y9.5038 
G01 X59.1696 Y9.4932 
G01 X59.1640 Y9.4836 
G01 X59.1526 Y9.4408 
G01 X59.1389 Y9.3988 
G01 X59.1383 Y9.3877 
G01 X59.1354 Y9.3770 
G01 X59.1354 Y9.3328 
G01 X59.1331 Y9.2886 
G01 X59.1354 Y9.2778 
G01 X59.1354 Y9.2666 
G01 X59.1469 Y9.2239 
G01 X59.1561 Y9.1807 
G01 X59.1611 Y9.1708 
G01 X59.1640 Y9.1600 
G01 X59.1659 Y9.1567 
G01 X59.1425 Y9.1567 
G01 X59.1329 Y9.1798 
G01 X59.0308 Y9.3326 
G01 X58.9007 Y9.4627 
G01 X58.7479 Y9.5648 
G01 X58.5780 Y9.6352 
G01 X58.3976 Y9.6710 
G01 X58.2138 Y9.6710 
G01 X58.0334 Y9.6352 
G01 X57.8635 Y9.5648 
G01 X57.7107 Y9.4627 
G01 X57.5806 Y9.3326 
G01 X57.4785 Y9.1798 
G01 X57.4689 Y9.1567 
G01 X57.4455 Y9.1567 
G01 X57.4474 Y9.1600 
G01 X57.4503 Y9.1708 
G01 X57.4553 Y9.1807 
G01 X57.4645 Y9.2239 
G01 X57.4760 Y9.2666 
G01 X57.4760 Y9.2778 
G01 X57.4783 Y9.2886 
G01 X57.4760 Y9.3328 
G01 X57.4760 Y9.3770 
G01 X57.4731 Y9.3877 
G01 X57.4725 Y9.3988 
G01 X57.4588 Y9.4408 
G01 X57.4474 Y9.4836 
G01 X57.4418 Y9.4932 
G01 X57.4384 Y9.5038 
G01 X57.4143 Y9.5408 
G01 X57.3922 Y9.5791 
G01 X57.3843 Y9.5870 
G01 X57.3783 Y9.5963 
G01 X57.3455 Y9.6259 
G01 X57.3142 Y9.6572 
G01 X57.3045 Y9.6627 
G01 X57.2963 Y9.6702 
G01 X57.2569 Y9.6902 
G01 X57.2186 Y9.7123 
G01 X57.2079 Y9.7152 
G01 X57.1980 Y9.7203 
G01 X57.1547 Y9.7294 
G01 X57.1120 Y9.7409 
G01 X57.1009 Y9.7409 
G01 X59.5105 Y9.7409 
G00 Z2.5400 
G00 X57.0459 Y9.7409 
G01 Z-0.1778 F254.00 
G01 X56.7969 Y9.7409 F508.00 
G01 X56.7968 Y9.7409 
G01 X57.0460 Y9.7409 
G00 Z2.5400 
G00 X56.7419 Y9.7409 
G01 Z-0.1778 F254.00 
G01 X56.7308 Y9.7409 F508.00 
G01 X56.6880 Y9.7295 
G01 X56.6448 Y9.7203 
G01 X56.6349 Y9.7152 
G01 X56.6242 Y9.7123 
G01 X56.5858 Y9.6902 
G01 X56.5465 Y9.6702 
G01 X56.5382 Y9.6627 
G01 X56.5286 Y9.6572 
G01 X56.4973 Y9.6259 
G01 X56.4645 Y9.5963 
G01 X56.4584 Y9.5870 
G01 X56.4506 Y9.5791 
G01 X56.4285 Y9.5408 
G01 X56.4044 Y9.5038 
G01 X56.4010 Y9.4932 
G01 X56.3954 Y9.4836 
G01 X56.3840 Y9.4408 
G01 X56.3703 Y9.3988 
G01 X56.3697 Y9.3877 
G01 X56.3668 Y9.3770 
G01 X56.3668 Y9.3328 
G01 X56.3645 Y9.2886 
G01 X56.3668 Y9.2777 
G01 X56.3668 Y9.2666 
G01 X56.3783 Y9.2239 
G01 X56.3875 Y9.1807 
G01 X56.3925 Y9.1708 
G01 X56.3954 Y9.1600 
G01 X56.3973 Y9.1567 
G01 X56.3739 Y9.1567 
G01 X56.3643 Y9.1798 
G01 X56.2622 Y9.3326 
G01 X56.1321 Y9.4627 
G01 X55.9793 Y9.5648 
G01 X55.8094 Y9.6352 
G01 X55.6290 Y9.6710 
G01 X55.4452 Y9.6710 
G01 X55.2648 Y9.6352 
G01 X55.0949 Y9.5648 
G01 X54.9421 Y9.4627 
G01 X54.8120 Y9.3326 
G01 X54.7099 Y9.1798 
G01 X54.7003 Y9.1567 
G01 X54.6769 Y9.1567 
G01 X54.6788 Y9.1600 
G01 X54.6817 Y9.1708 
G01 X54.6867 Y9.1807 
G01 X54.6959 Y9.2239 
G01 X54.7074 Y9.2666 
G01 X54.7074 Y9.2777 
G01 X54.7097 Y9.2886 
G01 X54.7074 Y9.3328 
G01 X54.7074 Y9.3770 
G01 X54.7045 Y9.3877 
G01 X54.7039 Y9.3988 
G01 X54.6902 Y9.4408 
G01 X54.6788 Y9.4836 
G01 X54.6732 Y9.4932 
G01 X54.6698 Y9.5038 
G01 X54.6457 Y9.5408 
G01 X54.6236 Y9.5791 
G01 X54.6158 Y9.5870 
G01 X54.6097 Y9.5963 
G01 X54.5769 Y9.6259 
G01 X54.5456 Y9.6572 
G01 X54.5360 Y9.6627 
G01 X54.5277 Y9.6702 
G01 X54.4883 Y9.6902 
G01 X54.4500 Y9.7123 
G01 X54.4393 Y9.7152 
G01 X54.4294 Y9.7203 
G01 X54.3861 Y9.7295 
G01 X54.3434 Y9.7409 
G01 X54.3323 Y9.7409 
G01 X56.7419 Y9.7409 
G00 Z2.5400 
G00 X54.2773 Y9.7409 
G01 Z-0.1778 F254.00 
G01 X54.0283 Y9.7409 F508.00 
G01 X54.0282 Y9.7409 
G01 X54.2774 Y9.7409 
G00 Z2.5400 
G00 X53.9733 Y9.7409 
G01 Z-0.1778 F254.00 
G01 X53.9622 Y9.7409 F508.00 
G01 X53.9194 Y9.7295 
G01 X53.8762 Y9.7203 
G01 X53.8663 Y9.7152 
G01 X53.8556 Y9.7123 
G01 X53.8172 Y9.6902 
G01 X53.7779 Y9.6702 
G01 X53.7696 Y9.6627 
G01 X53.7600 Y9.6572 
G01 X53.7287 Y9.6259 
G01 X53.6959 Y9.5963 
G01 X53.6898 Y9.5870 
G01 X53.6820 Y9.5791 
G01 X53.6599 Y9.5408 
G01 X53.6358 Y9.5038 
G01 X53.6324 Y9.4932 
G01 X53.6268 Y9.4836 
G01 X53.6153 Y9.4408 
G01 X53.6017 Y9.3988 
G01 X53.6011 Y9.3877 
G01 X53.5982 Y9.3770 
G01 X53.5982 Y9.3328 
G01 X53.5959 Y9.2886 
G01 X53.5982 Y9.2777 
G01 X53.5982 Y9.2666 
G01 X53.6097 Y9.2239 
G01 X53.6189 Y9.1807 
G01 X53.6239 Y9.1708 
G01 X53.6268 Y9.1600 
G01 X53.6287 Y9.1567 
G01 X53.6053 Y9.1567 
G01 X53.5957 Y9.1798 
G01 X53.4936 Y9.3326 
G01 X53.3635 Y9.4627 
G01 X53.2107 Y9.5648 
G01 X53.0408 Y9.6352 
G01 X52.8604 Y9.6710 
G01 X52.6766 Y9.6710 
G01 X52.4962 Y9.6352 
G01 X52.3263 Y9.5648 
G01 X52.1735 Y9.4627 
G01 X52.0434 Y9.3326 
G01 X51.9413 Y9.1798 
G01 X51.9317 Y9.1567 
G01 X51.9059 Y9.1567 
G01 X51.9484 Y9.2401 
G01 X52.0371 Y9.3622 
G01 X52.1439 Y9.4690 
G01 X52.2660 Y9.5577 
G01 X52.4004 Y9.6262 
G01 X52.4043 Y9.6275 
G01 X52.4470 Y9.6389 
G01 X52.4566 Y9.6444 
G01 X52.4672 Y9.6479 
G01 X52.5043 Y9.6720 
G01 X52.5425 Y9.6941 
G01 X52.5504 Y9.7019 
G01 X52.5597 Y9.7080 
G01 X52.5893 Y9.7408 
G01 X52.6206 Y9.7721 
G01 X52.6261 Y9.7817 
G01 X52.6336 Y9.7900 
G01 X52.6536 Y9.8294 
G01 X52.6757 Y9.8677 
G01 X52.6786 Y9.8784 
G01 X52.6837 Y9.8883 
G01 X52.6928 Y9.9315 
G01 X52.7043 Y9.9743 
G01 X52.7043 Y9.9854 
G01 X52.7066 Y9.9962 
G01 X52.7043 Y10.0404 
G01 X52.7043 Y10.0846 
G01 X52.7014 Y10.0953 
G01 X52.7008 Y10.1065 
G01 X52.6872 Y10.1485 
G01 X52.6757 Y10.1912 
G01 X52.6702 Y10.2008 
G01 X52.6667 Y10.2114 
G01 X52.6426 Y10.2485 
G01 X52.6205 Y10.2868 
G01 X52.6127 Y10.2946 
G01 X53.0046 Y9.9027 
G01 X53.0827 Y9.8246 
G01 X53.1782 Y9.7695 
G01 X53.2848 Y9.7409 
G01 X53.9733 Y9.7409 
G00 Z2.5400 
G00 X53.1241 Y12.7664 
G01 Z-0.1778 F254.00 
G01 X53.1241 Y12.7387 F508.00 
G01 X53.1313 Y12.7119 
G01 X53.1349 Y12.6845 
G01 X53.1455 Y12.6589 
G01 X53.1527 Y12.6321 
G01 X53.1665 Y12.6081 
G01 X53.1771 Y12.5825 
G01 X53.1940 Y12.5605 
G01 X53.2078 Y12.5365 
G01 X53.2274 Y12.5170 
G01 X53.2443 Y12.4950 
G01 X53.2663 Y12.4781 
G01 X53.2859 Y12.4585 
G01 X53.3099 Y12.4447 
G01 X53.3318 Y12.4278 
G01 X53.3574 Y12.4172 
G01 X53.3814 Y12.4033 
G01 X53.4082 Y12.3962 
G01 X53.4338 Y12.3856 
G01 X53.4613 Y12.3820 
G01 X53.4880 Y12.3748 
G01 X53.5157 Y12.3748 
G01 X53.5432 Y12.3712 
G01 X53.5707 Y12.3748 
G01 X53.5984 Y12.3748 
G01 X53.6251 Y12.3820 
G01 X53.6526 Y12.3856 
G01 X53.6782 Y12.3962 
G01 X53.6988 Y12.4017 
G01 X53.5578 Y12.3075 
G01 X53.4277 Y12.1774 
G01 X53.3256 Y12.0246 
G01 X53.2552 Y11.8547 
G01 X53.2194 Y11.6743 
G01 X53.2194 Y11.4905 
G01 X53.2552 Y11.3101 
G01 X53.3256 Y11.1402 
G01 X53.4277 Y10.9874 
G01 X53.5578 Y10.8573 
G01 X53.7106 Y10.7552 
G01 X53.8805 Y10.6848 
G01 X54.0609 Y10.6490 
G01 X54.2447 Y10.6490 
G01 X54.4251 Y10.6848 
G01 X54.5950 Y10.7552 
G01 X54.7478 Y10.8573 
G01 X54.8779 Y10.9874 
G01 X54.9783 Y11.1377 
G01 X54.9771 Y11.1332 
G01 X54.9665 Y11.1076 
G01 X54.9629 Y11.0801 
G01 X54.9557 Y11.0534 
G01 X54.9557 Y11.0257 
G01 X54.9521 Y10.9982 
G01 X54.9557 Y10.9707 
G01 X54.9557 Y10.9430 
G01 X54.9629 Y10.9162 
G01 X54.9665 Y10.8888 
G01 X54.9771 Y10.8632 
G01 X54.9843 Y10.8364 
G01 X54.9981 Y10.8124 
G01 X55.0087 Y10.7868 
G01 X55.0256 Y10.7649 
G01 X55.0394 Y10.7409 
G01 X55.0590 Y10.7213 
G01 X55.0759 Y10.6993 
G01 X55.0979 Y10.6824 
G01 X55.1175 Y10.6628 
G01 X55.1415 Y10.6490 
G01 X55.1634 Y10.6321 
G01 X55.1890 Y10.6215 
G01 X55.2130 Y10.6077 
G01 X55.2398 Y10.6005 
G01 X55.2654 Y10.5899 
G01 X55.2929 Y10.5863 
G01 X55.3196 Y10.5791 
G01 X55.3474 Y10.5791 
G01 X53.5136 Y10.5791 
G01 X53.1241 Y10.9686 
G01 X53.1241 Y12.7664 
G00 Z2.5400 
G00 X53.1241 Y19.7684 
G01 Z-0.1778 F254.00 
G01 X53.1241 Y12.8213 F508.00 
G01 X53.1241 Y19.7402 
G01 X53.1027 Y19.8200 
G01 X53.1241 Y19.7684 
G00 Z2.5400 
G00 X53.0603 Y19.9224 
G01 Z-0.1778 F254.00 
G01 X53.0817 Y19.8708 F508.00 
G01 X53.0404 Y19.9423 
G01 X53.0603 Y19.9224 
G00 Z2.5400 
G00 X44.3666 Y24.5491 
G01 Z-0.1778 F254.00 
G01 X48.3434 Y24.5491 F508.00 
G01 X48.3950 Y24.5277 
G01 X48.3152 Y24.5491 
G01 X44.3948 Y24.5491 
G01 X44.3150 Y24.5277 
G01 X44.3666 Y24.5491 
G00 Z2.5400 
G00 X31.3242 Y46.4768 
G01 Z-0.1778 F254.00 
G01 X31.4198 Y46.4217 F508.00 
G01 X31.5264 Y46.3931 
G01 X31.5794 Y46.3931 
G01 X31.6310 Y46.3717 
G01 X31.5512 Y46.3931 
G01 X31.4079 Y46.3931 
G01 X31.3242 Y46.4768 
G00 Z2.5400 
G00 X31.7334 Y46.3293 
G01 Z-0.1778 F254.00 
G01 X31.7533 Y46.3094 F508.00 
G01 X31.6818 Y46.3507 
G01 X31.7334 Y46.3293 
G00 Z2.5400 
G00 X30.5720 Y19.5516 
G01 Z-0.1778 F254.00 
G01 X30.6654 Y19.4977 F508.00 
G01 X30.7720 Y19.4691 
G01 X39.0780 Y19.4691 
G01 X39.1846 Y19.4977 
G01 X39.2801 Y19.5528 
G01 X39.3582 Y19.6309 
G01 X44.2126 Y24.4853 
G01 X44.2642 Y24.5067 
G01 X44.1927 Y24.4654 
G01 X39.1964 Y19.4691 
G01 X30.6536 Y19.4691 
G01 X30.5699 Y19.5528 
G00 Z2.5400 
G00 X48.4974 Y24.4853 
G01 Z-0.1778 F254.00 
G01 X48.5173 Y24.4654 F508.00 
G01 X48.4458 Y24.5067 
G01 X48.4974 Y24.4853 
G00 Z2.5400 
G00 X52.5738 Y10.3335 
G01 Z-0.1778 F254.00 
G01 X52.5738 Y10.3335 F508.00 
G01 X52.5530 Y10.3543 
G01 X52.3497 Y10.5576 
G01 X52.3425 Y10.5751 
G01 X52.3227 Y10.6009 
G01 X52.2753 Y10.6626 
G01 X52.1877 Y10.7298 
G01 X52.1715 Y10.7365 
G01 X52.0858 Y10.7720 
G01 X51.9764 Y10.7864 
G01 X51.8670 Y10.7720 
G01 X51.5699 Y10.6489 
G01 X51.1985 Y10.6489 
G01 X50.8554 Y10.7911 
G01 X50.5929 Y11.0536 
G01 X50.4507 Y11.3967 
G01 X50.4507 Y11.7681 
G01 X50.5929 Y12.1112 
G01 X50.8033 Y12.3216 
G01 X50.8753 Y12.3936 
G01 X50.8814 Y12.3997 
G01 X50.9365 Y12.4952 
G01 X50.9571 Y12.5720 
G01 X50.9651 Y12.6018 
G01 X50.9651 Y17.2244 
G01 X50.9365 Y17.3310 
G01 X50.8814 Y17.4266 
G01 X50.8033 Y17.5046 
G01 X48.1768 Y20.1312 
G01 X50.9651 Y17.3428 
G01 X50.9651 Y12.4192 
G01 X50.9420 Y12.4096 
G01 X50.7892 Y12.3075 
G01 X50.6591 Y12.1774 
G01 X50.5570 Y12.0246 
G01 X50.4866 Y11.8547 
G01 X50.4507 Y11.6743 
G01 X50.4507 Y11.4905 
G01 X50.4866 Y11.3101 
G01 X50.5570 Y11.1402 
G01 X50.6591 Y10.9874 
G01 X50.7892 Y10.8573 
G01 X50.9420 Y10.7552 
G01 X51.1119 Y10.6848 
G01 X51.2923 Y10.6490 
G01 X51.4761 Y10.6490 
G01 X51.6565 Y10.6848 
G01 X51.8264 Y10.7552 
G01 X51.9792 Y10.8573 
G01 X52.1093 Y10.9874 
G01 X52.2114 Y11.1402 
G01 X52.2818 Y11.3101 
G01 X52.2859 Y11.3309 
G01 X52.2859 Y10.7398 
G01 X52.3145 Y10.6332 
G01 X52.3696 Y10.5377 
G01 X52.4477 Y10.4596 
G01 X52.5738 Y10.3335 
G00 Z2.5400 
G00 X55.4023 Y10.5791 
G01 Z-0.1778 F254.00 
G01 X55.6720 Y10.5791 F508.00 
G00 Z2.5400 
G00 X55.7269 Y10.5791 
G01 Z-0.1778 F254.00 
G01 X55.7546 Y10.5791 F508.00 
G01 X55.7813 Y10.5863 
G01 X55.8088 Y10.5899 
G01 X55.8344 Y10.6005 
G01 X55.8612 Y10.6077 
G01 X55.8852 Y10.6215 
G01 X55.9108 Y10.6321 
G01 X55.9327 Y10.6490 
G01 X55.9567 Y10.6628 
G01 X55.9763 Y10.6824 
G01 X55.9983 Y10.6993 
G01 X56.0152 Y10.7213 
G01 X56.0348 Y10.7409 
G01 X56.0486 Y10.7649 
G01 X56.0655 Y10.7868 
G01 X56.0761 Y10.8124 
G01 X56.0899 Y10.8364 
G01 X56.0971 Y10.8632 
G01 X56.1077 Y10.8888 
G01 X56.1113 Y10.9162 
G01 X56.1185 Y10.9430 
G01 X56.1185 Y10.9707 
G01 X56.1221 Y10.9982 
G01 X56.1185 Y11.0257 
G01 X56.1185 Y11.0534 
G01 X56.1113 Y11.0801 
G01 X56.1077 Y11.1076 
G01 X56.0971 Y11.1332 
G01 X56.0959 Y11.1377 
G01 X56.1963 Y10.9874 
G01 X56.3264 Y10.8573 
G01 X56.4792 Y10.7552 
G01 X56.6491 Y10.6848 
G01 X56.8295 Y10.6490 
G01 X57.0133 Y10.6490 
G01 X57.1937 Y10.6848 
G01 X57.3636 Y10.7552 
G01 X57.5164 Y10.8573 
G01 X57.6465 Y10.9874 
G01 X57.7469 Y11.1377 
G01 X57.7457 Y11.1332 
G01 X57.7351 Y11.1076 
G01 X57.7315 Y11.0801 
G01 X57.7243 Y11.0534 
G01 X57.7243 Y11.0257 
G01 X57.7207 Y10.9982 
G01 X57.7243 Y10.9707 
G01 X57.7243 Y10.9430 
G01 X57.7315 Y10.9162 
G01 X57.7351 Y10.8888 
G01 X57.7457 Y10.8632 
G01 X57.7529 Y10.8364 
G01 X57.7667 Y10.8124 
G01 X57.7773 Y10.7868 
G01 X57.7942 Y10.7649 
G01 X57.8080 Y10.7409 
G01 X57.8276 Y10.7213 
G01 X57.8445 Y10.6993 
G01 X57.8665 Y10.6824 
G01 X57.8861 Y10.6628 
G01 X57.9101 Y10.6490 
G01 X57.9320 Y10.6321 
G01 X57.9576 Y10.6215 
G01 X57.9816 Y10.6077 
G01 X58.0084 Y10.6005 
G01 X58.0340 Y10.5899 
G01 X58.0615 Y10.5863 
G01 X58.0882 Y10.5791 
G01 X58.1159 Y10.5791 
G01 X55.7268 Y10.5791 
G00 Z2.5400 
G00 X58.1709 Y10.5791 
G01 Z-0.1778 F254.00 
G01 X58.4406 Y10.5791 F508.00 
G00 Z2.5400 
G00 X60.5718 Y7.9175 
G01 Z-0.1778 F254.00 
G01 X60.4497 Y8.0062 F508.00 
G01 X60.3429 Y8.1130 
G01 X60.2542 Y8.2351 
G01 X60.2117 Y8.3185 
G01 X60.2375 Y8.3185 
G01 X60.2471 Y8.2954 
G01 X60.3492 Y8.1426 
G01 X60.4793 Y8.0125 
G01 X60.6321 Y7.9104 
G01 X60.6552 Y7.9008 
G01 X60.6552 Y7.8750 
G01 X60.5718 Y7.9175 
G00 Z2.5400 
G00 X64.6630 Y8.2351 
G01 Z-0.1778 F254.00 
G01 X64.5743 Y8.1130 F508.00 
G01 X64.4675 Y8.0062 
G01 X64.3454 Y7.9175 
G01 X64.2620 Y7.8750 
G01 X64.2620 Y7.9008 
G01 X64.2851 Y7.9104 
G01 X64.4379 Y8.0125 
G01 X64.5680 Y8.1426 
G01 X64.6701 Y8.2954 
G01 X64.6797 Y8.3185 
G01 X64.7055 Y8.3185 
G01 X64.6630 Y8.2351 
G00 Z2.5400 
G00 X67.5449 Y8.5519 
G01 Z-0.1778 F254.00 
G01 X67.4028 Y8.2088 F508.00 
G01 X67.1403 Y7.9463 
G01 X66.7972 Y7.8041 
G01 X66.4258 Y7.8041 
G01 X66.0827 Y7.9463 
G01 X65.8202 Y8.2088 
G01 X65.6780 Y8.5519 
G01 X65.6780 Y8.9233 
G01 X65.7662 Y9.1360 
G01 X65.7139 Y9.0099 
G01 X65.6780 Y8.8295 
G01 X65.6780 Y8.6457 
G01 X65.7139 Y8.4653 
G01 X65.7843 Y8.2954 
G01 X65.8864 Y8.1426 
G01 X66.0165 Y8.0125 
G01 X66.1693 Y7.9104 
G01 X66.3392 Y7.8400 
G01 X66.5196 Y7.8042 
G01 X66.7034 Y7.8042 
G01 X66.8838 Y7.8400 
G01 X67.0537 Y7.9104 
G01 X67.2065 Y8.0125 
G01 X67.3366 Y8.1426 
G01 X67.4387 Y8.2954 
G01 X67.5091 Y8.4653 
G01 X67.5449 Y8.6457 
G01 X67.5449 Y8.8295 
G01 X67.5091 Y9.0099 
G01 X67.4643 Y9.1179 
G01 X67.5449 Y8.9233 
G01 X67.5449 Y8.5519 
G00 Z2.5400 
G00 X63.3404 Y7.9175 
G01 Z-0.1778 F254.00 
G01 X63.2183 Y8.0062 F508.00 
G01 X63.1115 Y8.1130 
G01 X63.0228 Y8.2351 
G01 X62.9803 Y8.3185 
G01 X63.0061 Y8.3185 
G01 X63.0157 Y8.2954 
G01 X63.1178 Y8.1426 
G01 X63.2479 Y8.0125 
G01 X63.4007 Y7.9104 
G01 X63.4238 Y7.9008 
G01 X63.4238 Y7.8750 
G01 X63.3404 Y7.9175 
G00 Z2.5400 
G00 X61.8944 Y8.2351 
G01 Z-0.1778 F254.00 
G01 X61.8057 Y8.1130 F508.00 
G01 X61.6989 Y8.0062 
G01 X61.5768 Y7.9175 
G01 X61.4934 Y7.8750 
G01 X61.4934 Y7.9008 
G01 X61.5165 Y7.9104 
G01 X61.6693 Y8.0125 
G01 X61.7994 Y8.1426 
G01 X61.9015 Y8.2954 
G01 X61.9111 Y8.3185 
G01 X61.9369 Y8.3185 
G01 X61.8944 Y8.2351 
G00 Z2.5400 
G00 X55.0346 Y7.9175 
G01 Z-0.1778 F254.00 
G01 X54.9125 Y8.0062 F508.00 
G01 X54.8057 Y8.1130 
G01 X54.7170 Y8.2351 
G01 X54.6745 Y8.3185 
G01 X54.7003 Y8.3185 
G01 X54.7099 Y8.2954 
G01 X54.8120 Y8.1426 
G01 X54.9421 Y8.0125 
G01 X55.0949 Y7.9104 
G01 X55.1180 Y7.9008 
G01 X55.1180 Y7.8750 
G01 X55.0346 Y7.9175 
G00 Z2.5400 
G00 X59.1258 Y8.2351 
G01 Z-0.1778 F254.00 
G01 X59.0371 Y8.1130 F508.00 
G01 X58.9303 Y8.0062 
G01 X58.8082 Y7.9175 
G01 X58.7248 Y7.8750 
G01 X58.7248 Y7.9008 
G01 X58.7479 Y7.9104 
G01 X58.9007 Y8.0125 
G01 X59.0308 Y8.1426 
G01 X59.1329 Y8.2954 
G01 X59.1425 Y8.3185 
G01 X59.1683 Y8.3185 
G01 X59.1258 Y8.2351 
G00 Z2.5400 
G00 X57.8032 Y7.9175 
G01 Z-0.1778 F254.00 
G01 X57.6811 Y8.0062 F508.00 
G01 X57.5743 Y8.1130 
G01 X57.4856 Y8.2351 
G01 X57.4431 Y8.3185 
G01 X57.4689 Y8.3185 
G01 X57.4785 Y8.2954 
G01 X57.5806 Y8.1426 
G01 X57.7107 Y8.0125 
G01 X57.8635 Y7.9104 
G01 X57.8866 Y7.9008 
G01 X57.8866 Y7.8750 
G01 X57.8032 Y7.9175 
G00 Z2.5400 
G00 X56.3572 Y8.2351 
G01 Z-0.1778 F254.00 
G01 X56.2685 Y8.1130 F508.00 
G01 X56.1617 Y8.0062 
G01 X56.0396 Y7.9175 
G01 X55.9562 Y7.8750 
G01 X55.9562 Y7.9008 
G01 X55.9793 Y7.9104 
G01 X56.1321 Y8.0125 
G01 X56.2622 Y8.1426 
G01 X56.3643 Y8.2954 
G01 X56.3739 Y8.3185 
G01 X56.3997 Y8.3185 
G01 X56.3572 Y8.2351 
G00 Z2.5400 
G00 X86.0803 Y27.5424 
G01 Z-0.1778 F254.00 
G01 X86.1017 Y27.4908 F508.00 
G01 X86.0604 Y27.5623 
G01 X86.0803 Y27.5424 
G00 Z2.5400 
G00 X53.5886 Y8.2351 
G01 Z-0.1778 F254.00 
G01 X53.4999 Y8.1130 F508.00 
G01 X53.3931 Y8.0062 
G01 X53.2710 Y7.9175 
G01 X53.1876 Y7.8750 
G01 X53.1876 Y7.9008 
G01 X53.2107 Y7.9104 
G01 X53.3635 Y8.0125 
G01 X53.4936 Y8.1426 
G01 X53.5957 Y8.2954 
G01 X53.6053 Y8.3185 
G01 X53.6311 Y8.3185 
G01 X53.5886 Y8.2351 
G00 Z2.5400 
G00 X52.2660 Y7.9175 
G01 Z-0.1778 F254.00 
G01 X52.1439 Y8.0062 F508.00 
G01 X52.0371 Y8.1130 
G01 X51.9484 Y8.2351 
G01 X51.9059 Y8.3185 
G01 X51.9317 Y8.3185 
G01 X51.9413 Y8.2954 
G01 X52.0434 Y8.1426 
G01 X52.1735 Y8.0125 
G01 X52.3263 Y7.9104 
G01 X52.3494 Y7.9008 
G01 X52.3494 Y7.8750 
G01 X52.2660 Y7.9175 
G00 Z2.5400 
G00 X34.6515 Y9.1456 
G01 Z-0.1778 F254.00 
G01 X34.3789 Y9.8038 F508.00 
G01 X34.3789 Y10.5162 
G01 X34.6515 Y11.1743 
G01 X35.1552 Y11.6781 
G01 X35.8134 Y11.9507 
G01 X36.5258 Y11.9507 
G01 X37.1839 Y11.6781 
G01 X37.6877 Y11.1743 
G01 X37.9603 Y10.5162 
G01 X37.9603 Y9.8038 
G01 X37.6877 Y9.1456 
G01 X37.1839 Y8.6419 
G01 X36.5258 Y8.3693 
G01 X35.8134 Y8.3693 
G01 X35.1552 Y8.6419 
G01 X34.6515 Y9.1456 
G00 Z2.5400 
G00 X47.6735 Y7.9104 
G01 Z-0.1778 F254.00 
G01 X47.8263 Y8.0125 F508.00 
G01 X47.9564 Y8.1426 
G01 X48.0585 Y8.2954 
G01 X48.0680 Y8.3185 
G01 X48.0939 Y8.3185 
G01 X48.0514 Y8.2351 
G01 X47.9627 Y8.1130 
G01 X47.8559 Y8.0062 
G01 X47.7338 Y7.9175 
G01 X47.6504 Y7.8750 
G01 X47.6504 Y7.9008 
G01 X47.6735 Y7.9104 
G00 Z2.5400 
G00 X49.5808 Y9.6002 
G01 Z-0.1778 F254.00 
G01 X49.5808 Y9.5744 F508.00 
G01 X49.5577 Y9.5648 
G01 X49.4049 Y9.4627 
G01 X49.2748 Y9.3326 
G01 X49.1727 Y9.1798 
G01 X49.1631 Y9.1567 
G01 X49.1373 Y9.1567 
G01 X49.1798 Y9.2401 
G01 X49.2685 Y9.3622 
G01 X49.3753 Y9.4690 
G01 X49.4974 Y9.5577 
G01 X49.5808 Y9.6002 
G00 Z2.5400 
G00 X50.4421 Y7.9104 
G01 Z-0.1778 F254.00 
G01 X50.5949 Y8.0125 F508.00 
G01 X50.7250 Y8.1426 
G01 X50.8271 Y8.2954 
G01 X50.8367 Y8.3185 
G01 X50.8625 Y8.3185 
G01 X50.8200 Y8.2351 
G01 X50.7313 Y8.1130 
G01 X50.6245 Y8.0062 
G01 X50.5024 Y7.9175 
G01 X50.4190 Y7.8750 
G01 X50.4190 Y7.9008 
G01 X50.4421 Y7.9104 
G00 Z2.5400 
G00 X50.8271 Y9.1798 
G01 Z-0.1778 F254.00 
G01 X50.7250 Y9.3326 F508.00 
G01 X50.5949 Y9.4627 
G01 X50.4421 Y9.5648 
G01 X50.4190 Y9.5744 
G01 X50.4190 Y9.6002 
G01 X50.5024 Y9.5577 
G01 X50.6245 Y9.4690 
G01 X50.7313 Y9.3622 
G01 X50.8200 Y9.2401 
G01 X50.8625 Y9.1567 
G01 X50.8367 Y9.1567 
G01 X50.8271 Y9.1798 
G00 Z2.5400 
G00 X49.1727 Y8.2954 
G01 Z-0.1778 F254.00 
G01 X49.2748 Y8.1426 F508.00 
G01 X49.4049 Y8.0125 
G01 X49.5577 Y7.9104 
G01 X49.5808 Y7.9008 
G01 X49.5808 Y7.8750 
G01 X49.4974 Y7.9175 
G01 X49.3753 Y8.0062 
G01 X49.2685 Y8.1130 
G01 X49.1798 Y8.2351 
G01 X49.1373 Y8.3185 
G01 X49.1631 Y8.3185 
G01 X49.1727 Y8.2954 
G00 Z2.5400 
G00 X48.0585 Y9.1798 
G01 Z-0.1778 F254.00 
G01 X47.9564 Y9.3326 F508.00 
G01 X47.8263 Y9.4627 
G01 X47.6735 Y9.5648 
G01 X47.6504 Y9.5744 
G01 X47.6504 Y9.6002 
G01 X47.7338 Y9.5577 
G01 X47.8559 Y9.4690 
G01 X47.9627 Y9.3622 
G01 X48.0514 Y9.2401 
G01 X48.0939 Y9.1567 
G01 X48.0681 Y9.1567 
G01 X48.0585 Y9.1798 
G00 Z2.5400 
G00 X46.3945 Y8.3185 
G01 Z-0.1778 F254.00 
G01 X46.4041 Y8.2954 F508.00 
G01 X46.5062 Y8.1426 
G01 X46.6363 Y8.0125 
G01 X46.7891 Y7.9104 
G01 X46.8122 Y7.9008 
G01 X46.8122 Y7.8750 
G01 X46.7288 Y7.9175 
G01 X46.6067 Y8.0062 
G01 X46.4999 Y8.1130 
G01 X46.4112 Y8.2351 
G01 X46.3687 Y8.3185 
G01 X46.3945 Y8.3185 
G00 Z2.5400 
G00 X44.9049 Y7.9104 
G01 Z-0.1778 F254.00 
G01 X45.0577 Y8.0125 F508.00 
G01 X45.1878 Y8.1426 
G01 X45.2899 Y8.2954 
G01 X45.2995 Y8.3185 
G01 X45.3253 Y8.3185 
G01 X45.2828 Y8.2351 
G01 X45.1941 Y8.1130 
G01 X45.0873 Y8.0062 
G01 X44.9652 Y7.9175 
G01 X44.8818 Y7.8750 
G01 X44.8818 Y7.9008 
G01 X44.9049 Y7.9104 
G00 Z2.5400 
G00 X45.2899 Y9.1798 
G01 Z-0.1778 F254.00 
G01 X45.1878 Y9.3326 F508.00 
G01 X45.0577 Y9.4627 
G01 X44.9049 Y9.5648 
G01 X44.8818 Y9.5744 
G01 X44.8818 Y9.6002 
G01 X44.9652 Y9.5577 
G01 X45.0873 Y9.4690 
G01 X45.1941 Y9.3622 
G01 X45.2828 Y9.2401 
G01 X45.3253 Y9.1567 
G01 X45.2995 Y9.1567 
G01 X45.2899 Y9.1798 
G00 Z2.5400 
G00 X43.6259 Y8.3185 
G01 Z-0.1778 F254.00 
G01 X43.6355 Y8.2954 F508.00 
G01 X43.7376 Y8.1426 
G01 X43.8677 Y8.0125 
G01 X44.0205 Y7.9104 
G01 X44.0436 Y7.9008 
G01 X44.0436 Y7.8750 
G01 X43.9601 Y7.9175 
G01 X43.8381 Y8.0062 
G01 X43.7313 Y8.1129 
G01 X43.6426 Y8.2351 
G01 X43.6001 Y8.3185 
G01 X43.6259 Y8.3185 
G00 Z2.5400 
G00 X43.6426 Y9.2401 
G01 Z-0.1778 F254.00 
G01 X43.7313 Y9.3622 F508.00 
G01 X43.8381 Y9.4690 
G01 X43.9601 Y9.5577 
G01 X44.0436 Y9.6002 
G01 X44.0436 Y9.5744 
G01 X44.0205 Y9.5648 
G01 X43.8677 Y9.4627 
G01 X43.7376 Y9.3326 
G01 X43.6355 Y9.1798 
G01 X43.6259 Y9.1567 
G01 X43.6001 Y9.1567 
G01 X43.6426 Y9.2401 
G00 Z2.5400 
G00 X46.4112 Y9.2401 
G01 Z-0.1778 F254.00 
G01 X46.4999 Y9.3622 F508.00 
G01 X46.6067 Y9.4690 
G01 X46.7288 Y9.5577 
G01 X46.8122 Y9.6002 
G01 X46.8122 Y9.5744 
G01 X46.7891 Y9.5648 
G01 X46.6363 Y9.4627 
G01 X46.5062 Y9.3326 
G01 X46.4041 Y9.1798 
G01 X46.3945 Y9.1567 
G01 X46.3687 Y9.1567 
G01 X46.4112 Y9.2401 
G00 Z2.5400 
G00 X30.8745 Y59.6265 
G01 Z-0.1778 F254.00 
G01 X30.0855 Y59.6265 F508.00 
G01 X29.5521 Y59.0931 
G01 X29.5161 Y59.0931 
G01 X30.0509 Y59.6278 
G01 X30.1277 Y59.7046 
G01 X30.1828 Y59.8002 
G01 X30.2111 Y59.9056 
G01 X30.2114 Y60.0171 
G01 X30.1828 Y60.1237 
G01 X30.1277 Y60.2193 
G01 X30.0496 Y60.2973 
G01 X29.5275 Y60.8195 
G01 X29.5275 Y61.6085 
G01 X30.0855 Y62.1665 
G01 X30.8745 Y62.1665 
G01 X31.4325 Y61.6085 
G01 X31.4325 Y60.8195 
G01 X30.9091 Y60.2961 
G01 X30.8323 Y60.2193 
G01 X30.7771 Y60.1237 
G01 X30.7489 Y60.0184 
G01 X30.7486 Y59.9068 
G01 X30.7771 Y59.8002 
G01 X30.8323 Y59.7046 
G01 X30.9104 Y59.6266 
G01 X31.4438 Y59.0931 
G01 X31.4079 Y59.0931 
G01 X30.8745 Y59.6265 
G00 Z2.5400 
G00 X31.4325 Y60.8195 
G01 Z-0.1778 F254.00 
G01 X31.4325 Y61.6085 F508.00 
G01 X30.8745 Y62.1665 
G01 X30.0855 Y62.1665 
G01 X29.5275 Y61.6085 
G01 X29.5275 Y60.8195 
G01 X30.0855 Y60.2615 
G01 X30.8745 Y60.2615 
G01 X31.4325 Y60.8195 
G00 Z2.5400 
G00 X79.6925 Y21.1955 
G01 Z-0.1778 F254.00 
G01 X79.6925 Y21.9845 F508.00 
G01 X79.1345 Y22.5425 
G01 X78.3455 Y22.5425 
G01 X77.8121 Y22.0091 
G01 X69.6424 Y22.0091 
G01 X69.5626 Y21.9877 
G01 X69.6142 Y22.0091 
G01 X77.6936 Y22.0091 
G01 X77.7152 Y22.0149 
G01 X77.8002 Y22.0377 
G01 X77.8958 Y22.0928 
G01 X77.9738 Y22.1709 
G01 X78.4056 Y22.6027 
G01 X78.4608 Y22.6982 
G01 X78.4882 Y22.8003 
G01 X78.4894 Y22.8048 
G01 X78.4894 Y22.9152 
G01 X78.4608 Y23.0218 
G01 X78.4056 Y23.1173 
G01 X78.3276 Y23.1954 
G01 X77.7875 Y23.7355 
G01 X77.7875 Y24.5245 
G01 X78.4056 Y25.1427 
G01 X78.4608 Y25.2382 
G01 X78.4894 Y25.3448 
G01 X78.4894 Y25.4552 
G01 X78.4608 Y25.5618 
G01 X78.4056 Y25.6573 
G01 X78.3276 Y25.7354 
G01 X77.7875 Y26.2755 
G01 X77.7875 Y27.0645 
G01 X78.4056 Y27.6827 
G01 X78.4608 Y27.7782 
G01 X78.4894 Y27.8848 
G01 X78.4894 Y27.9952 
G01 X78.4608 Y28.1018 
G01 X78.4056 Y28.1973 
G01 X78.3276 Y28.2754 
G01 X77.7875 Y28.8155 
G01 X77.7875 Y29.6045 
G01 X78.4056 Y30.2227 
G01 X78.4608 Y30.3182 
G01 X78.4894 Y30.4248 
G01 X78.4894 Y30.5352 
G01 X78.4608 Y30.6418 
G01 X78.4056 Y30.7373 
G01 X78.3276 Y30.8154 
G01 X77.7875 Y31.3555 
G01 X77.7875 Y32.1445 
G01 X78.3276 Y32.6846 
G01 X78.4056 Y32.7627 
G01 X78.4608 Y32.8582 
G01 X78.4890 Y32.9636 
G01 X78.4894 Y33.0752 
G01 X78.4608 Y33.1818 
G01 X78.4056 Y33.2773 
G01 X77.7875 Y33.8955 
G01 X77.7875 Y34.6845 
G01 X78.3455 Y35.2425 
G01 X79.1345 Y35.2425 
G01 X79.6925 Y34.6845 
G01 X79.6925 Y34.0486 
G01 X79.7211 Y33.9420 
G01 X79.7762 Y33.8465 
G01 X79.6925 Y33.9302 
G01 X79.6925 Y34.6845 
G01 X79.1345 Y35.2425 
G01 X78.3455 Y35.2425 
G01 X77.7875 Y34.6845 
G01 X77.7875 Y33.8955 
G01 X78.3455 Y33.3375 
G01 X79.0998 Y33.3375 
G01 X85.3059 Y27.1314 
G01 X85.3059 Y15.0326 
G01 X84.0274 Y13.7541 
G01 X75.2304 Y13.7541 
G01 X75.1238 Y13.7255 
G01 X75.0283 Y13.6704 
G01 X74.9502 Y13.5923 
G01 X73.8283 Y12.4704 
G01 X73.8053 Y12.4800 
G01 X73.6249 Y12.5158 
G01 X73.4411 Y12.5158 
G01 X73.2607 Y12.4800 
G01 X73.0908 Y12.4096 
G01 X72.9380 Y12.3075 
G01 X72.8079 Y12.1774 
G01 X72.7058 Y12.0246 
G01 X72.6354 Y11.8547 
G01 X72.5996 Y11.6743 
G01 X72.5996 Y11.4905 
G01 X72.6354 Y11.3101 
G01 X72.7058 Y11.1402 
G01 X72.8079 Y10.9874 
G01 X72.9380 Y10.8573 
G01 X73.0908 Y10.7552 
G01 X73.2607 Y10.6848 
G01 X73.4411 Y10.6490 
G01 X73.6249 Y10.6490 
G01 X73.8053 Y10.6848 
G01 X73.9752 Y10.7552 
G01 X74.1280 Y10.8573 
G01 X74.2581 Y10.9874 
G01 X74.3602 Y11.1402 
G01 X74.4306 Y11.3101 
G01 X74.4664 Y11.4905 
G01 X74.4664 Y11.6743 
G01 X74.4306 Y11.8547 
G01 X74.4210 Y11.8777 
G01 X74.5502 Y12.0069 
G01 X74.4950 Y11.9113 
G01 X74.4664 Y11.8047 
G01 X74.4664 Y11.3967 
G01 X74.3243 Y11.0536 
G01 X74.0618 Y10.7911 
G01 X73.7187 Y10.6489 
G01 X73.3473 Y10.6489 
G01 X73.0042 Y10.7911 
G01 X72.7417 Y11.0536 
G01 X72.5995 Y11.3967 
G01 X72.5995 Y11.8682 
G01 X72.5882 Y11.9105 
G01 X72.5710 Y11.9748 
G01 X72.5158 Y12.0704 
G01 X72.4378 Y12.1484 
G01 X72.4134 Y12.1625 
G01 X72.3422 Y12.2036 
G01 X72.3225 Y12.2089 
G01 X72.2356 Y12.2322 
G01 X72.1253 Y12.2322 
G01 X72.0830 Y12.2208 
G01 X72.0187 Y12.2036 
G01 X71.9231 Y12.1484 
G01 X73.9606 Y14.1859 
G01 X82.7322 Y14.1859 
G01 X82.8388 Y14.2145 
G01 X82.9343 Y14.2696 
G01 X83.0124 Y14.3477 
G01 X84.8158 Y16.1511 
G01 X84.8709 Y16.2466 
G01 X84.8995 Y16.3532 
G01 X84.8995 Y26.0648 
G01 X84.8709 Y26.1714 
G01 X84.8158 Y26.2669 
G01 X84.7377 Y26.3450 
G01 X79.6925 Y31.3902 
G01 X79.6925 Y32.1445 
G01 X79.1345 Y32.7025 
G01 X78.3455 Y32.7025 
G01 X77.7875 Y32.1445 
G01 X77.7875 Y31.3555 
G01 X78.3455 Y30.7975 
G01 X79.0998 Y30.7975 
G01 X84.0613 Y25.8360 
G01 X84.0613 Y16.5820 
G01 X82.5034 Y15.0241 
G01 X73.7318 Y15.0241 
G01 X73.6252 Y14.9955 
G01 X73.5297 Y14.9404 
G01 X73.4516 Y14.8623 
G01 X71.0597 Y12.4704 
G01 X71.0367 Y12.4800 
G01 X70.8563 Y12.5158 
G01 X70.6725 Y12.5158 
G01 X70.4921 Y12.4800 
G01 X70.3222 Y12.4096 
G01 X70.1694 Y12.3075 
G01 X70.0393 Y12.1774 
G01 X69.9372 Y12.0246 
G01 X69.8668 Y11.8547 
G01 X69.8310 Y11.6743 
G01 X69.8310 Y11.4905 
G01 X69.8668 Y11.3101 
G01 X69.9372 Y11.1402 
G01 X70.0393 Y10.9874 
G01 X70.1694 Y10.8573 
G01 X70.3222 Y10.7552 
G01 X70.4921 Y10.6848 
G01 X70.6725 Y10.6490 
G01 X70.8563 Y10.6490 
G01 X71.0367 Y10.6848 
G01 X71.2066 Y10.7552 
G01 X71.3594 Y10.8573 
G01 X71.4895 Y10.9874 
G01 X71.5916 Y11.1402 
G01 X71.6620 Y11.3101 
G01 X71.6978 Y11.4905 
G01 X71.6978 Y11.6743 
G01 X71.6620 Y11.8547 
G01 X71.6524 Y11.8777 
G01 X71.8451 Y12.0704 
G01 X71.7816 Y12.0069 
G01 X71.7661 Y11.9801 
G01 X71.7264 Y11.9113 
G01 X71.7205 Y11.8892 
G01 X71.6978 Y11.8047 
G01 X71.6978 Y11.3967 
G01 X71.5557 Y11.0536 
G01 X71.3259 Y10.8238 
G01 X71.2542 Y10.7521 
G01 X71.2479 Y10.7458 
G01 X71.2087 Y10.6779 
G01 X71.1927 Y10.6502 
G01 X71.1750 Y10.5843 
G01 X71.1641 Y10.5436 
G01 X71.1641 Y10.4333 
G01 X71.1760 Y10.3892 
G01 X71.1927 Y10.3267 
G01 X71.2479 Y10.2311 
G01 X71.0617 Y10.4173 
G01 X70.9836 Y10.4954 
G01 X70.8881 Y10.5505 
G01 X70.7815 Y10.5791 
G01 X58.4954 Y10.5791 
G01 X58.5232 Y10.5791 
G01 X58.5499 Y10.5863 
G01 X58.5774 Y10.5899 
G01 X58.6030 Y10.6005 
G01 X58.6298 Y10.6077 
G01 X58.6538 Y10.6215 
G01 X58.6794 Y10.6321 
G01 X58.7013 Y10.6490 
G01 X58.7253 Y10.6628 
G01 X58.7449 Y10.6824 
G01 X58.7669 Y10.6993 
G01 X58.7838 Y10.7213 
G01 X58.8034 Y10.7409 
G01 X58.8172 Y10.7649 
G01 X58.8341 Y10.7868 
G01 X58.8447 Y10.8124 
G01 X58.8585 Y10.8364 
G01 X58.8657 Y10.8632 
G01 X58.8763 Y10.8888 
G01 X58.8799 Y10.9162 
G01 X58.8871 Y10.9430 
G01 X58.8871 Y10.9707 
G01 X58.8907 Y10.9982 
G01 X58.8871 Y11.0257 
G01 X58.8871 Y11.0534 
G01 X58.8799 Y11.0801 
G01 X58.8763 Y11.1076 
G01 X58.8657 Y11.1332 
G01 X58.8645 Y11.1377 
G01 X58.9649 Y10.9874 
G01 X59.0950 Y10.8573 
G01 X59.2478 Y10.7552 
G01 X59.4177 Y10.6848 
G01 X59.5981 Y10.6490 
G01 X59.7819 Y10.6490 
G01 X59.9623 Y10.6848 
G01 X60.1322 Y10.7552 
G01 X60.2850 Y10.8573 
G01 X60.4151 Y10.9874 
G01 X60.5172 Y11.1402 
G01 X60.5876 Y11.3101 
G01 X60.6234 Y11.4905 
G01 X60.6234 Y11.6743 
G01 X60.5876 Y11.8547 
G01 X60.5780 Y11.8777 
G01 X69.8712 Y21.1709 
G01 X77.8121 Y21.1709 
G01 X78.3455 Y20.6375 
G01 X79.1345 Y20.6375 
G01 X79.6925 Y21.1955 
G00 Z2.5400 
G00 X79.6925 Y27.0645 
G01 Z-0.1778 F254.00 
G01 X79.1345 Y27.6225 F508.00 
G01 X78.3455 Y27.6225 
G01 X77.7875 Y27.0645 
G01 X77.7875 Y26.2755 
G01 X78.3455 Y25.7175 
G01 X79.0998 Y25.7175 
G01 X81.4959 Y23.3214 
G01 X81.4959 Y19.2490 
G01 X79.8364 Y17.5895 
G01 X70.7600 Y17.5895 
G01 X70.6534 Y17.5609 
G01 X70.5579 Y17.5058 
G01 X65.5225 Y12.4704 
G01 X65.4995 Y12.4800 
G01 X65.3191 Y12.5158 
G01 X65.1353 Y12.5158 
G01 X64.9549 Y12.4800 
G01 X64.7850 Y12.4096 
G01 X64.6322 Y12.3075 
G01 X64.5021 Y12.1774 
G01 X64.4000 Y12.0246 
G01 X64.3296 Y11.8547 
G01 X64.2938 Y11.6743 
G01 X64.2938 Y11.4905 
G01 X64.3296 Y11.3101 
G01 X64.4000 Y11.1402 
G01 X64.5021 Y10.9874 
G01 X64.6322 Y10.8573 
G01 X64.7850 Y10.7552 
G01 X64.9549 Y10.6848 
G01 X65.1353 Y10.6490 
G01 X65.3191 Y10.6490 
G01 X65.4995 Y10.6848 
G01 X65.6694 Y10.7552 
G01 X65.8222 Y10.8573 
G01 X65.9523 Y10.9874 
G01 X66.0544 Y11.1402 
G01 X66.1248 Y11.3101 
G01 X66.1606 Y11.4905 
G01 X66.1606 Y11.6743 
G01 X66.1248 Y11.8547 
G01 X66.1152 Y11.8777 
G01 X70.9888 Y16.7513 
G01 X80.0652 Y16.7513 
G01 X80.1718 Y16.7799 
G01 X80.2673 Y16.8350 
G01 X82.2504 Y18.8181 
G01 X82.3055 Y18.9136 
G01 X82.3341 Y19.0202 
G01 X82.3341 Y23.5502 
G01 X82.3055 Y23.6568 
G01 X82.2504 Y23.7523 
G01 X82.1723 Y23.8304 
G01 X79.6925 Y26.3102 
G01 X79.6925 Y27.0645 
G00 Z2.5400 
G00 X79.6925 Y29.6045 
G01 Z-0.1778 F254.00 
G01 X79.1345 Y30.1625 F508.00 
G01 X78.3455 Y30.1625 
G01 X77.7875 Y29.6045 
G01 X77.7875 Y28.8155 
G01 X78.3455 Y28.2575 
G01 X79.0998 Y28.2575 
G01 X82.8167 Y24.5406 
G01 X82.8167 Y17.8774 
G01 X81.2334 Y16.2941 
G01 X72.2332 Y16.2941 
G01 X72.1266 Y16.2655 
G01 X72.0311 Y16.2104 
G01 X71.9530 Y16.1323 
G01 X68.2911 Y12.4704 
G01 X68.2681 Y12.4800 
G01 X68.0877 Y12.5158 
G01 X67.9039 Y12.5158 
G01 X67.7235 Y12.4800 
G01 X67.5536 Y12.4096 
G01 X67.4008 Y12.3075 
G01 X67.2707 Y12.1774 
G01 X67.1686 Y12.0246 
G01 X67.0982 Y11.8547 
G01 X67.0624 Y11.6743 
G01 X67.0624 Y11.4905 
G01 X67.0982 Y11.3101 
G01 X67.1686 Y11.1402 
G01 X67.2707 Y10.9874 
G01 X67.4008 Y10.8573 
G01 X67.5536 Y10.7552 
G01 X67.7235 Y10.6848 
G01 X67.9039 Y10.6490 
G01 X68.0877 Y10.6490 
G01 X68.2681 Y10.6848 
G01 X68.4380 Y10.7552 
G01 X68.5908 Y10.8573 
G01 X68.7209 Y10.9874 
G01 X68.8230 Y11.1402 
G01 X68.8934 Y11.3101 
G01 X68.9292 Y11.4905 
G01 X68.9292 Y11.6743 
G01 X68.8934 Y11.8547 
G01 X68.8838 Y11.8777 
G01 X72.4620 Y15.4559 
G01 X81.4622 Y15.4559 
G01 X81.5688 Y15.4845 
G01 X81.6643 Y15.5396 
G01 X83.4931 Y17.3684 
G01 X83.5712 Y17.4465 
G01 X83.6263 Y17.5420 
G01 X83.6549 Y17.6486 
G01 X83.6549 Y24.7694 
G01 X83.6263 Y24.8760 
G01 X83.5712 Y24.9715 
G01 X83.4931 Y25.0496 
G01 X79.6925 Y28.8502 
G01 X79.6925 Y29.6045 
G00 Z2.5400 
G00 X63.3920 Y11.4905 
G01 Z-0.1778 F254.00 
G01 X63.3920 Y11.6743 F508.00 
G01 X63.3562 Y11.8547 
G01 X63.3466 Y11.8777 
G01 X69.4648 Y17.9959 
G01 X78.7952 Y17.9959 
G01 X78.9018 Y18.0245 
G01 X78.9973 Y18.0796 
G01 X79.0754 Y18.1577 
G01 X80.9023 Y19.9846 
G01 X80.9804 Y20.0627 
G01 X81.0355 Y20.1582 
G01 X81.0641 Y20.2648 
G01 X81.0641 Y22.2802 
G01 X81.0355 Y22.3868 
G01 X80.9804 Y22.4823 
G01 X79.6925 Y23.7702 
G01 X79.6925 Y24.5245 
G01 X79.1345 Y25.0825 
G01 X78.3455 Y25.0825 
G01 X77.7875 Y24.5245 
G01 X77.7875 Y23.7355 
G01 X78.3455 Y23.1775 
G01 X79.0998 Y23.1775 
G01 X80.2259 Y22.0514 
G01 X80.2259 Y20.4936 
G01 X78.5664 Y18.8341 
G01 X69.2360 Y18.8341 
G01 X69.1294 Y18.8055 
G01 X69.0339 Y18.7504 
G01 X68.9558 Y18.6723 
G01 X62.7539 Y12.4704 
G01 X62.7309 Y12.4800 
G01 X62.5505 Y12.5158 
G01 X62.3667 Y12.5158 
G01 X62.1863 Y12.4800 
G01 X62.0164 Y12.4096 
G01 X61.8636 Y12.3075 
G01 X61.7335 Y12.1774 
G01 X61.6314 Y12.0246 
G01 X61.5610 Y11.8547 
G01 X61.5252 Y11.6743 
G01 X61.5252 Y11.4905 
G01 X61.5610 Y11.3101 
G01 X61.6314 Y11.1402 
G01 X61.7335 Y10.9874 
G01 X61.8636 Y10.8573 
G01 X62.0164 Y10.7552 
G01 X62.1863 Y10.6848 
G01 X62.3667 Y10.6490 
G01 X62.5505 Y10.6490 
G01 X62.7309 Y10.6848 
G01 X62.9008 Y10.7552 
G01 X63.0536 Y10.8573 
G01 X63.1837 Y10.9874 
G01 X63.2858 Y11.1402 
G01 X63.3562 Y11.3101 
G01 X63.3920 Y11.4905 
G00 Z2.5400 
G00 X59.9623 Y12.4800 
G01 Z-0.1778 F254.00 
G01 X59.7819 Y12.5158 F508.00 
G01 X59.5981 Y12.5158 
G01 X59.4177 Y12.4800 
G01 X59.2478 Y12.4096 
G01 X59.0950 Y12.3075 
G01 X58.9649 Y12.1774 
G01 X58.8628 Y12.0246 
G01 X58.7924 Y11.8547 
G01 X58.7566 Y11.6743 
G01 X58.7566 Y11.4905 
G01 X58.7924 Y11.3101 
G01 X58.8447 Y11.1839 
G01 X58.7565 Y11.3967 
G01 X58.7565 Y11.7681 
G01 X58.8987 Y12.1112 
G01 X59.1612 Y12.3737 
G01 X59.5043 Y12.5158 
G01 X59.9123 Y12.5158 
G01 X60.0189 Y12.5444 
G01 X60.1145 Y12.5996 
G01 X60.1925 Y12.6776 
G01 X69.4602 Y21.9453 
G01 X69.5118 Y21.9667 
G01 X69.4403 Y21.9254 
G01 X69.3622 Y21.8473 
G01 X59.9853 Y12.4704 
G01 X59.9623 Y12.4800 
G00 Z2.5400 
G00 X79.6925 Y49.1355 
G01 Z-0.1778 F254.00 
G01 X79.6925 Y49.9245 F508.00 
G01 X79.1524 Y50.4646 
G01 X79.6925 Y49.9245 
G01 X79.6925 Y49.1355 
G00 Z2.5400 
G01 Z-0.1778 F254.00 
G01 X79.0744 Y48.5173 F508.00 
G01 X79.0192 Y48.4218 
G01 X78.9906 Y48.3152 
G01 X78.9906 Y48.2048 
G01 X79.0192 Y48.0982 
G01 X79.0744 Y48.0027 
G01 X79.1345 Y47.9425 
G01 X78.3455 Y47.9425 
G01 X77.7875 Y47.3845 
G01 X77.7875 Y46.5955 
G01 X78.3455 Y46.0375 
G01 X79.1345 Y46.0375 
G01 X79.6925 Y46.5955 
G01 X79.6925 Y47.3845 
G01 X79.1524 Y47.9246 
G01 X79.6925 Y47.3845 
G01 X79.6925 Y46.5955 
G01 X79.1691 Y46.0721 
G01 X79.0923 Y45.9953 
G01 X79.0371 Y45.8997 
G01 X79.0089 Y45.7944 
G01 X79.0086 Y45.6828 
G01 X79.0371 Y45.5762 
G01 X79.0923 Y45.4806 
G01 X79.1704 Y45.4026 
G01 X79.7038 Y44.8691 
G01 X79.6679 Y44.8691 
G01 X79.1345 Y45.4025 
G01 X78.3455 Y45.4025 
G01 X77.8121 Y44.8691 
G01 X77.7762 Y44.8691 
G01 X78.3109 Y45.4038 
G01 X78.3877 Y45.4806 
G01 X78.4428 Y45.5762 
G01 X78.4711 Y45.6816 
G01 X78.4714 Y45.7931 
G01 X78.4428 Y45.8997 
G01 X78.3877 Y45.9953 
G01 X78.3096 Y46.0733 
G01 X77.7875 Y46.5955 
G01 X77.7875 Y47.3845 
G01 X78.3276 Y47.9246 
G01 X78.4056 Y48.0027 
G01 X78.4608 Y48.0982 
G01 X78.4890 Y48.2036 
G01 X78.4894 Y48.3152 
G01 X78.4608 Y48.4218 
G01 X78.4056 Y48.5173 
G01 X77.7875 Y49.1355 
G01 X77.7875 Y49.9245 
G01 X78.3276 Y50.4646 
G01 X78.4056 Y50.5427 
G01 X78.4608 Y50.6382 
G01 X78.4890 Y50.7436 
G01 X78.4894 Y50.8552 
G01 X78.4608 Y50.9618 
G01 X78.4056 Y51.0573 
G01 X77.7875 Y51.6755 
G01 X77.7875 Y52.4645 
G01 X78.3455 Y53.0225 
G01 X79.1345 Y53.0225 
G01 X79.6925 Y52.4645 
G01 X79.6925 Y51.6755 
G01 X79.0744 Y51.0573 
G01 X79.0192 Y50.9618 
G01 X78.9906 Y50.8552 
G01 X78.9906 Y50.7448 
G01 X79.0192 Y50.6382 
G01 X79.0744 Y50.5427 
G01 X79.1345 Y50.4825 
G01 X78.3455 Y50.4825 
G01 X77.7875 Y49.9245 
G01 X77.7875 Y49.1355 
G01 X78.3455 Y48.5775 
G01 X79.1345 Y48.5775 
G01 X79.6925 Y49.1355 
G00 Z2.5400 
G00 X79.6925 Y51.6755 
G01 Z-0.1778 F254.00 
G01 X79.6925 Y52.4645 F508.00 
G01 X79.1345 Y53.0225 
G01 X78.3455 Y53.0225 
G01 X77.7875 Y52.4645 
G01 X77.7875 Y51.6755 
G01 X78.3455 Y51.1175 
G01 X79.1345 Y51.1175 
G01 X79.6925 Y51.6755 
G00 Z2.5400 
G00 X7.4864 Y49.9891 
G01 Z-0.1778 F254.00 
G01 X6.8946 Y49.9891 F508.00 
G01 X6.8701 Y50.0482 
G01 X6.7596 Y50.2136 
G01 X6.6190 Y50.3542 
G01 X6.4536 Y50.4647 
G01 X6.2699 Y50.5408 
G01 X6.0748 Y50.5796 
G01 X4.0852 Y50.5796 
G01 X3.8901 Y50.5408 
G01 X3.7064 Y50.4647 
G01 X3.5410 Y50.3542 
G01 X3.4004 Y50.2136 
G01 X3.2899 Y50.0482 
G01 X3.2138 Y49.8645 
G01 X3.1750 Y49.6694 
G01 X3.1750 Y49.4706 
G01 X3.2138 Y49.2755 
G01 X3.2899 Y49.0918 
G01 X3.4004 Y48.9264 
G01 X3.5410 Y48.7858 
G01 X3.7064 Y48.6753 
G01 X3.8901 Y48.5992 
G01 X4.0852 Y48.5603 
G01 X6.0748 Y48.5603 
G01 X6.2699 Y48.5992 
G01 X6.4536 Y48.6753 
G01 X6.6190 Y48.7858 
G01 X6.7596 Y48.9264 
G01 X6.8701 Y49.0918 
G01 X6.8946 Y49.1509 
G01 X7.7152 Y49.1509 
G01 X7.7950 Y49.1723 
G01 X7.7434 Y49.1509 
G01 X7.1025 Y49.1509 
G01 X6.9959 Y49.1223 
G01 X6.9004 Y49.0672 
G01 X6.8223 Y48.9891 
G01 X6.5473 Y48.7141 
G01 X6.1762 Y48.5603 
G01 X3.9838 Y48.5603 
G01 X3.6127 Y48.7141 
G01 X3.3287 Y48.9981 
G01 X3.1750 Y49.3692 
G01 X3.1750 Y49.7708 
G01 X3.3287 Y50.1419 
G01 X3.6127 Y50.4259 
G01 X3.9838 Y50.5796 
G01 X6.1762 Y50.5796 
G01 X6.5473 Y50.4259 
G01 X6.9004 Y50.0728 
G01 X6.9959 Y50.0177 
G01 X7.1025 Y49.9891 
G01 X7.3680 Y49.9891 
G01 X7.4746 Y50.0177 
G01 X7.5701 Y50.0728 
G01 X7.6482 Y50.1509 
G01 X9.6572 Y52.1599 
G01 X9.7123 Y52.2554 
G01 X9.7409 Y52.3620 
G01 X9.7409 Y58.5034 
G01 X9.7623 Y58.5550 
G01 X9.7409 Y58.4752 
G01 X9.7409 Y52.2436 
G01 X7.4864 Y49.9891 
G00 Z2.5400 
G00 X12.3791 Y68.8213 
G01 Z-0.1778 F254.00 
G01 X13.0209 Y68.8213 F508.00 
G01 X13.3765 Y69.1769 
G01 X13.4124 Y69.1769 
G01 X13.1329 Y68.8974 
G01 X13.0549 Y68.8194 
G01 X12.9997 Y68.7238 
G01 X12.9715 Y68.6184 
G01 X12.9711 Y68.5069 
G01 X12.9997 Y68.4003 
G01 X13.0549 Y68.3047 
G01 X13.3568 Y68.0028 
G01 X13.4747 Y67.7181 
G01 X13.4747 Y67.4099 
G01 X13.3568 Y67.1252 
G01 X13.2809 Y67.0493 
G01 X13.2048 Y66.9732 
G01 X13.1477 Y66.8757 
G01 X13.1271 Y66.7989 
G01 X13.1191 Y66.7691 
G01 X13.1191 Y61.7549 
G01 X13.1249 Y61.7333 
G01 X13.1477 Y61.6483 
G01 X13.2028 Y61.5528 
G01 X13.1191 Y61.6365 
G01 X13.1191 Y66.9123 
G01 X13.1938 Y66.9622 
G01 X13.3017 Y67.0702 
G01 X13.3865 Y67.1970 
G01 X13.4449 Y67.3380 
G01 X13.4747 Y67.4877 
G01 X13.4747 Y67.6403 
G01 X13.4449 Y67.7900 
G01 X13.3865 Y67.9310 
G01 X13.3017 Y68.0578 
G01 X13.1938 Y68.1657 
G01 X13.0670 Y68.2505 
G01 X12.9260 Y68.3089 
G01 X12.7763 Y68.3387 
G01 X12.6237 Y68.3387 
G01 X12.4740 Y68.3089 
G01 X12.3330 Y68.2505 
G01 X12.2062 Y68.1657 
G01 X12.0983 Y68.0578 
G01 X12.0135 Y67.9310 
G01 X11.9551 Y67.7900 
G01 X11.9253 Y67.6403 
G01 X11.9253 Y67.4877 
G01 X11.9551 Y67.3380 
G01 X12.0135 Y67.1970 
G01 X12.0983 Y67.0702 
G01 X12.2062 Y66.9622 
G01 X12.2809 Y66.9123 
G01 X12.2809 Y61.6365 
G01 X11.9253 Y61.2809 
G01 X11.9253 Y60.7780 
G01 X9.8246 Y58.6773 
G01 X9.7833 Y58.6057 
G01 X9.8047 Y58.6574 
G01 X11.8416 Y60.6943 
G01 X11.8967 Y60.7898 
G01 X11.9253 Y60.8964 
G01 X11.9253 Y61.2809 
G01 X12.1191 Y61.4747 
G01 X12.1904 Y61.5460 
G01 X12.1972 Y61.5527 
G01 X12.2523 Y61.6483 
G01 X12.2746 Y61.7314 
G01 X12.2809 Y61.7549 
G01 X12.2809 Y66.7691 
G01 X12.2736 Y66.7964 
G01 X12.2523 Y66.8757 
G01 X12.1972 Y66.9712 
G01 X12.1191 Y67.0493 
G01 X12.0432 Y67.1252 
G01 X11.9253 Y67.4099 
G01 X11.9253 Y67.7181 
G01 X12.0432 Y68.0028 
G01 X12.3451 Y68.3047 
G01 X12.4003 Y68.4003 
G01 X12.4289 Y68.5069 
G01 X12.4289 Y68.6172 
G01 X12.4003 Y68.7238 
G01 X12.3451 Y68.8194 
G01 X12.2671 Y68.8974 
G01 X11.9876 Y69.1769 
G01 X12.0235 Y69.1769 
G01 X12.3791 Y68.8213 
G00 Z2.5400 
G00 X13.0209 Y60.1853 
G01 Z-0.1778 F254.00 
G01 X13.4747 Y60.6391 F508.00 
G01 X13.4747 Y61.2809 
G01 X13.3475 Y61.4081 
G01 X13.4747 Y61.2809 
G01 X13.4747 Y60.6391 
G01 X13.0209 Y60.1853 
G01 X12.6364 Y60.1853 
G01 X12.5298 Y60.1567 
G01 X12.4343 Y60.1016 
G01 X12.3562 Y60.0235 
G01 X10.6628 Y58.3301 
G01 X10.6077 Y58.2346 
G01 X10.5791 Y58.1280 
G01 X10.5791 Y51.9866 
G01 X10.5577 Y51.9350 
G01 X10.5791 Y52.0148 
G01 X10.5791 Y58.2464 
G01 X12.5180 Y60.1853 
G01 X13.0209 Y60.1853 
G00 Z2.5400 
G00 X10.5153 Y51.8326 
G01 Z-0.1778 F254.00 
G01 X10.2994 Y51.6167 F508.00 
G01 X7.8974 Y49.2147 
G01 X7.8457 Y49.1933 
G01 X7.9173 Y49.2346 
G01 X10.4173 Y51.7346 
G01 X10.4954 Y51.8127 
G01 X10.5367 Y51.8842 
G01 X10.5153 Y51.8326 
G00 Z2.5400 
G00 X12.2809 Y70.3084 
G01 Z-0.1778 F254.00 
G01 X12.2809 Y70.2725 F508.00 
G01 X12.0235 Y70.0151 
G01 X11.9876 Y70.0151 
G01 X12.2809 Y70.3084 
G00 Z2.5400 
G00 X13.4124 Y70.0151 
G01 Z-0.1778 F254.00 
G01 X13.3765 Y70.0151 F508.00 
G01 X13.1191 Y70.2725 
G01 X13.1191 Y70.3084 
G01 X13.4124 Y70.0151 
G00 Z2.5400 
G00 X13.4747 Y34.1629 
G01 Z-0.1778 F254.00 
G01 X13.4747 Y35.6363 F508.00 
G01 X13.4449 Y35.7860 
G01 X13.3865 Y35.9270 
G01 X13.3017 Y36.0538 
G01 X13.1938 Y36.1617 
G01 X13.0670 Y36.2465 
G01 X12.9260 Y36.3049 
G01 X12.7763 Y36.3347 
G01 X12.6237 Y36.3347 
G01 X12.4740 Y36.3049 
G01 X12.3330 Y36.2465 
G01 X12.2062 Y36.1617 
G01 X12.0983 Y36.0538 
G01 X12.0135 Y35.9270 
G01 X11.9551 Y35.7860 
G01 X11.9253 Y35.6363 
G01 X11.9253 Y34.1629 
G01 X11.9551 Y34.0132 
G01 X12.0135 Y33.8722 
G01 X12.0983 Y33.7454 
G01 X12.2062 Y33.6375 
G01 X12.2809 Y33.5875 
G01 X12.2809 Y25.5736 
G01 X10.1482 Y23.4409 
G01 X12.1972 Y25.4899 
G01 X12.2523 Y25.5854 
G01 X12.2809 Y25.6920 
G01 X12.2809 Y33.4443 
G01 X12.2523 Y33.5509 
G01 X12.1972 Y33.6464 
G01 X12.1191 Y33.7245 
G01 X12.0432 Y33.8004 
G01 X11.9253 Y34.0851 
G01 X11.9253 Y35.7141 
G01 X12.0432 Y35.9988 
G01 X12.2612 Y36.2168 
G01 X12.5459 Y36.3347 
G01 X12.8541 Y36.3347 
G01 X13.1388 Y36.2168 
G01 X13.3568 Y35.9988 
G01 X13.4747 Y35.7141 
G01 X13.4747 Y34.0851 
G01 X13.3568 Y33.8004 
G01 X13.2028 Y33.6464 
G01 X13.1477 Y33.5509 
G01 X13.1191 Y33.4443 
G01 X13.1191 Y25.3166 
G01 X13.0977 Y25.2650 
G01 X13.1191 Y25.3448 
G01 X13.1191 Y33.5875 
G01 X13.1938 Y33.6375 
G01 X13.3017 Y33.7454 
G01 X13.3865 Y33.8722 
G01 X13.4449 Y34.0132 
G01 X13.4747 Y34.1629 
G00 Z2.5400 
G00 X13.0553 Y25.1626 
G01 Z-0.1778 F254.00 
G01 X10.6133 Y22.7206 F508.00 
G01 X10.6133 Y22.7206 
G01 X13.0354 Y25.1427 
G01 X13.0767 Y25.2142 
G01 X13.0553 Y25.1626 
G00 Z2.5400 
G00 X10.5352 Y22.6425 
G01 Z-0.1778 F254.00 
G01 X10.3974 Y22.5047 F508.00 
G01 X10.3457 Y22.4833 
G01 X10.4173 Y22.5246 
G01 X10.4954 Y22.6027 
G01 X10.5352 Y22.6425 
G00 Z2.5400 
G00 X7.2186 Y23.2791 
G01 Z-0.1778 F254.00 
G01 X9.8680 Y23.2791 F508.00 
G01 X9.9746 Y23.3077 
G01 X10.0701 Y23.3628 
G01 X9.9864 Y23.2791 
G01 X7.2186 Y23.2791 
G00 Z2.5400 
G00 X10.2434 Y22.4409 
G01 Z-0.1778 F254.00 
G01 X7.0625 Y22.4409 F508.00 
G01 X6.9559 Y22.4123 
G01 X6.8604 Y22.3572 
G01 X6.7823 Y22.2791 
G01 X6.5473 Y22.0441 
G01 X6.1762 Y21.8903 
G01 X3.9838 Y21.8903 
G01 X3.6127 Y22.0441 
G01 X3.3287 Y22.3281 
G01 X3.1750 Y22.6992 
G01 X3.1750 Y23.1008 
G01 X3.3287 Y23.4719 
G01 X3.6127 Y23.7559 
G01 X3.9838 Y23.9096 
G01 X6.1762 Y23.9096 
G01 X6.5473 Y23.7559 
G01 X6.8469 Y23.4563 
G01 X6.8558 Y23.4409 
G01 X6.8754 Y23.4213 
G01 X6.8923 Y23.3993 
G01 X6.9143 Y23.3824 
G01 X6.9339 Y23.3628 
G01 X6.9579 Y23.3490 
G01 X6.9798 Y23.3321 
G01 X7.0054 Y23.3215 
G01 X7.0294 Y23.3077 
G01 X7.0562 Y23.3005 
G01 X7.0818 Y23.2899 
G01 X7.1092 Y23.2863 
G01 X7.1360 Y23.2791 
G01 X7.1637 Y23.2791 
G01 X6.9112 Y23.2791 
G01 X6.8701 Y23.3782 
G01 X6.7596 Y23.5436 
G01 X6.6190 Y23.6842 
G01 X6.4536 Y23.7947 
G01 X6.2699 Y23.8708 
G01 X6.0748 Y23.9096 
G01 X4.0852 Y23.9096 
G01 X3.8901 Y23.8708 
G01 X3.7064 Y23.7947 
G01 X3.5410 Y23.6842 
G01 X3.4004 Y23.5436 
G01 X3.2899 Y23.3782 
G01 X3.2138 Y23.1945 
G01 X3.1750 Y22.9994 
G01 X3.1750 Y22.8006 
G01 X3.2138 Y22.6055 
G01 X3.2899 Y22.4217 
G01 X3.4004 Y22.2564 
G01 X3.5410 Y22.1158 
G01 X3.7064 Y22.0053 
G01 X3.8901 Y21.9291 
G01 X4.0852 Y21.8904 
G01 X6.0748 Y21.8904 
G01 X6.2699 Y21.9291 
G01 X6.4536 Y22.0053 
G01 X6.6190 Y22.1158 
G01 X6.7596 Y22.2564 
G01 X6.8701 Y22.4217 
G01 X6.8780 Y22.4409 
G01 X10.2152 Y22.4409 
G01 X10.2950 Y22.4623 
G01 X10.2434 Y22.4409 
G00 Z2.5400 
G00 X55.9879 Y11.3967 
G01 Z-0.1778 F254.00 
G01 X55.9879 Y11.7681 F508.00 
G01 X56.1301 Y12.1112 
G01 X56.3926 Y12.3737 
G01 X56.7357 Y12.5158 
G01 X57.1071 Y12.5158 
G01 X57.4502 Y12.3737 
G01 X57.7127 Y12.1112 
G01 X57.8548 Y11.7681 
G01 X57.8548 Y11.3967 
G01 X57.7667 Y11.1840 
G01 X57.8190 Y11.3101 
G01 X57.8548 Y11.4905 
G01 X57.8548 Y11.6743 
G01 X57.8190 Y11.8547 
G01 X57.7486 Y12.0246 
G01 X57.6465 Y12.1774 
G01 X57.5164 Y12.3075 
G01 X57.3636 Y12.4096 
G01 X57.1937 Y12.4800 
G01 X57.0133 Y12.5158 
G01 X56.8295 Y12.5158 
G01 X56.6491 Y12.4800 
G01 X56.4792 Y12.4096 
G01 X56.3264 Y12.3075 
G01 X56.1963 Y12.1774 
G01 X56.0942 Y12.0246 
G01 X56.0238 Y11.8547 
G01 X55.9880 Y11.6743 
G01 X55.9880 Y11.4905 
G01 X56.0238 Y11.3101 
G01 X56.0761 Y11.1839 
G01 X55.9879 Y11.3967 
G00 Z2.5400 
G00 X53.9671 Y12.5158 
G01 Z-0.1778 F254.00 
G01 X54.3385 Y12.5158 F508.00 
G01 X54.6816 Y12.3737 
G01 X54.9441 Y12.1112 
G01 X55.0862 Y11.7681 
G01 X55.0862 Y11.3967 
G01 X54.9981 Y11.1840 
G01 X55.0504 Y11.3101 
G01 X55.0862 Y11.4905 
G01 X55.0862 Y11.6743 
G01 X55.0504 Y11.8547 
G01 X54.9800 Y12.0246 
G01 X54.8779 Y12.1774 
G01 X54.7478 Y12.3075 
G01 X54.5950 Y12.4096 
G01 X54.4251 Y12.4800 
G01 X54.2447 Y12.5158 
G01 X54.0609 Y12.5158 
G01 X53.8805 Y12.4800 
G01 X53.7289 Y12.4172 
G01 X53.9671 Y12.5158 
G00 Z2.5400 
G00 X77.8121 Y44.0309 
G01 Z-0.1778 F254.00 
G01 X78.3209 Y43.5221 F508.00 
G01 X78.3209 Y43.4862 
G01 X77.7762 Y44.0309 
G01 X77.8121 Y44.0309 
G00 Z2.5400 
G00 X79.1591 Y43.4862 
G01 Z-0.1778 F254.00 
G01 X79.1591 Y43.5221 F508.00 
G01 X79.6679 Y44.0309 
G01 X79.7038 Y44.0309 
G01 X79.1591 Y43.4862 
G00 Z2.5400 
G00 X79.6679 Y42.3291 
G01 Z-0.1778 F254.00 
G01 X79.1591 Y42.8379 F508.00 
G01 X79.1591 Y42.8738 
G01 X79.1883 Y42.8446 
G01 X79.7038 Y42.3291 
G01 X79.6679 Y42.3291 
G00 Z2.5400 
G00 X79.1691 Y40.9562 
G01 Z-0.1778 F254.00 
G01 X79.0923 Y40.8794 F508.00 
G01 X79.0371 Y40.7838 
G01 X79.0089 Y40.6784 
G01 X79.0086 Y40.5669 
G01 X79.0371 Y40.4603 
G01 X79.0923 Y40.3647 
G01 X79.1704 Y40.2867 
G01 X79.6925 Y39.7645 
G01 X79.6925 Y38.9755 
G01 X79.1345 Y38.4175 
G01 X78.3455 Y38.4175 
G01 X77.7875 Y38.9755 
G01 X77.7875 Y39.7645 
G01 X78.3109 Y40.2879 
G01 X78.3877 Y40.3647 
G01 X78.4428 Y40.4603 
G01 X78.4711 Y40.5656 
G01 X78.4714 Y40.6772 
G01 X78.4428 Y40.7838 
G01 X78.3877 Y40.8794 
G01 X78.3096 Y40.9574 
G01 X77.7762 Y41.4909 
G01 X77.8121 Y41.4909 
G01 X78.3455 Y40.9575 
G01 X79.1345 Y40.9575 
G01 X79.6679 Y41.4909 
G01 X79.7038 Y41.4909 
G01 X79.1691 Y40.9562 
G00 Z2.5400 
G00 X79.6925 Y38.9755 
G01 Z-0.1778 F254.00 
G01 X79.6925 Y39.7645 F508.00 
G01 X79.1345 Y40.3225 
G01 X78.3455 Y40.3225 
G01 X77.7875 Y39.7645 
G01 X77.7875 Y38.9755 
G01 X78.3455 Y38.4175 
G01 X79.1345 Y38.4175 
G01 X79.6925 Y38.9755 
G00 Z2.5400 
G00 X78.2917 Y42.8446 
G01 Z-0.1778 F254.00 
G01 X78.2917 Y42.8446 F508.00 
G01 X78.3209 Y42.8738 
G01 X78.3209 Y42.8379 
G01 X77.8121 Y42.3291 
G01 X77.7762 Y42.3291 
G01 X78.2917 Y42.8446 
G00 Z2.5400 
G00 X12.1972 Y45.0936 
G01 Z-0.1778 F254.00 
G01 X12.2523 Y45.1891 F508.00 
G01 X12.2809 Y45.2957 
G01 X12.2809 Y56.3551 
G01 X12.2523 Y56.4617 
G01 X12.1972 Y56.5572 
G01 X12.1191 Y56.6353 
G01 X11.9253 Y56.8291 
G01 X11.9253 Y57.4709 
G01 X12.3791 Y57.9247 
G01 X13.0209 Y57.9247 
G01 X13.4747 Y57.4709 
G01 X13.4747 Y56.8291 
G01 X13.2028 Y56.5572 
G01 X13.1477 Y56.4617 
G01 X13.1191 Y56.3551 
G01 X13.1191 Y45.2957 
G01 X13.1477 Y45.1891 
G01 X13.2028 Y45.0936 
G01 X13.2809 Y45.0155 
G01 X13.3568 Y44.9396 
G01 X13.4747 Y44.6549 
G01 X13.4747 Y43.0259 
G01 X13.3568 Y42.7412 
G01 X13.1388 Y42.5232 
G01 X12.8541 Y42.4053 
G01 X12.5459 Y42.4053 
G01 X12.2612 Y42.5232 
G01 X12.0432 Y42.7412 
G01 X11.9253 Y43.0259 
G01 X11.9253 Y44.6549 
G01 X12.0432 Y44.9396 
G01 X12.1972 Y45.0936 
G00 Z2.5400 
G00 X11.9253 Y44.5771 
G01 Z-0.1778 F254.00 
G01 X11.9253 Y43.1037 F508.00 
G01 X11.9551 Y42.9540 
G01 X12.0135 Y42.8130 
G01 X12.0983 Y42.6862 
G01 X12.2062 Y42.5783 
G01 X12.3330 Y42.4935 
G01 X12.4740 Y42.4351 
G01 X12.6237 Y42.4053 
G01 X12.7763 Y42.4053 
G01 X12.9260 Y42.4351 
G01 X13.0670 Y42.4935 
G01 X13.1938 Y42.5783 
G01 X13.3017 Y42.6862 
G01 X13.3865 Y42.8130 
G01 X13.4449 Y42.9540 
G01 X13.4747 Y43.1037 
G01 X13.4747 Y44.5771 
G01 X13.4449 Y44.7268 
G01 X13.3865 Y44.8678 
G01 X13.3017 Y44.9946 
G01 X13.1938 Y45.1025 
G01 X13.1191 Y45.1525 
G01 X13.1191 Y56.4735 
G01 X13.4747 Y56.8291 
G01 X13.4747 Y57.4709 
G01 X13.0209 Y57.9247 
G01 X12.3791 Y57.9247 
G01 X11.9253 Y57.4709 
G01 X11.9253 Y56.8291 
G01 X12.2809 Y56.4735 
G01 X12.2809 Y45.1525 
G01 X12.2062 Y45.1025 
G01 X12.0983 Y44.9946 
G01 X12.0135 Y44.8678 
G01 X11.9551 Y44.7268 
G01 X11.9253 Y44.5771 
G00 Z2.5400 
G00 X43.2632 Y20.1312 
G01 Z-0.1778 F254.00 
G01 X40.1806 Y17.0486 F508.00 
G01 X40.1806 Y17.0486 
G01 X43.2632 Y20.1312 
G00 Z2.5400 
G00 X48.1379 Y20.1700 
G01 Z-0.1778 F254.00 
G01 X48.1183 Y20.1896 F508.00 
G01 X48.0943 Y20.2035 
G01 X48.0724 Y20.2203 
G01 X48.0468 Y20.2309 
G01 X48.0228 Y20.2448 
G01 X47.9960 Y20.2520 
G01 X47.9704 Y20.2626 
G01 X47.9429 Y20.2662 
G01 X47.9162 Y20.2733 
G01 X47.8885 Y20.2733 
G01 X47.8610 Y20.2770 
G01 X47.8335 Y20.2733 
G01 X47.8058 Y20.2733 
G01 X47.7791 Y20.2662 
G01 X47.7516 Y20.2626 
G01 X47.7260 Y20.2520 
G01 X47.6992 Y20.2448 
G01 X47.6752 Y20.2309 
G01 X47.6496 Y20.2203 
G01 X47.6277 Y20.2035 
G01 X47.6037 Y20.1896 
G01 X47.5841 Y20.1700 
G01 X47.5621 Y20.1532 
G01 X47.5452 Y20.1312 
G01 X47.5256 Y20.1116 
G01 X47.5118 Y20.0876 
G01 X47.4949 Y20.0656 
G01 X47.4843 Y20.0400 
G01 X47.4705 Y20.0160 
G01 X47.4633 Y19.9892 
G01 X47.4527 Y19.9637 
G01 X47.4491 Y19.9362 
G01 X47.4419 Y19.9094 
G01 X47.4419 Y19.8817 
G01 X47.4383 Y19.8542 
G01 X47.4419 Y19.8268 
G01 X47.4419 Y19.7991 
G01 X47.4491 Y19.7723 
G01 X47.4527 Y19.7448 
G01 X47.4633 Y19.7193 
G01 X47.4705 Y19.6925 
G01 X47.4843 Y19.6685 
G01 X47.5867 Y19.4213 
G01 X47.5867 Y18.6787 
G01 X47.3025 Y17.9926 
G01 X46.7774 Y17.4675 
G01 X46.0913 Y17.1833 
G01 X45.3487 Y17.1833 
G01 X44.6626 Y17.4675 
G01 X44.1375 Y17.9926 
G01 X43.8533 Y18.6787 
G01 X43.8533 Y19.4213 
G01 X43.9557 Y19.6685 
G01 X43.9695 Y19.6925 
G01 X43.9767 Y19.7193 
G01 X43.9873 Y19.7448 
G01 X43.9909 Y19.7723 
G01 X43.9981 Y19.7991 
G01 X43.9981 Y19.8268 
G01 X44.0017 Y19.8542 
G01 X43.9981 Y19.8817 
G01 X43.9981 Y19.9094 
G01 X43.9909 Y19.9362 
G01 X43.9873 Y19.9637 
G01 X43.9767 Y19.9892 
G01 X43.9695 Y20.0160 
G01 X43.9557 Y20.0400 
G01 X43.9451 Y20.0656 
G01 X43.9282 Y20.0876 
G01 X43.9144 Y20.1116 
G01 X43.8948 Y20.1312 
G01 X43.8779 Y20.1532 
G01 X43.8559 Y20.1700 
G01 X43.8363 Y20.1896 
G01 X43.8123 Y20.2035 
G01 X43.7904 Y20.2203 
G01 X43.7648 Y20.2309 
G01 X43.7408 Y20.2448 
G01 X43.7140 Y20.2520 
G01 X43.6884 Y20.2626 
G01 X43.6609 Y20.2662 
G01 X43.6342 Y20.2733 
G01 X43.6065 Y20.2733 
G01 X43.5790 Y20.2770 
G01 X43.5515 Y20.2733 
G01 X43.5238 Y20.2733 
G01 X43.4971 Y20.2662 
G01 X43.4696 Y20.2626 
G01 X43.4440 Y20.2520 
G01 X43.4172 Y20.2448 
G01 X43.3932 Y20.2309 
G01 X43.3676 Y20.2203 
G01 X43.3457 Y20.2035 
G01 X43.3217 Y20.1896 
G01 X43.3021 Y20.1700 
G01 X44.6838 Y21.5517 
G01 X46.7562 Y21.5517 
G01 X48.1380 Y20.1700 
G00 Z2.5400 
G00 X0.2667 Y0.6306 
G01 Z-0.1778 F254.00 
G01 X0.2953 Y0.5240 F508.00 
G01 X0.3504 Y0.4285 
G01 X0.4285 Y0.3504 
G01 X0.5240 Y0.2953 
G01 X0.6306 Y0.2667 
G01 X88.2694 Y0.2667 
G01 X88.3760 Y0.2953 
G01 X88.4715 Y0.3504 
G01 X88.5496 Y0.4285 
G01 X88.6047 Y0.5240 
G01 X88.6333 Y0.6306 
G01 X88.6333 Y74.2994 
G01 X88.6047 Y74.4060 
G01 X88.5496 Y74.5015 
G01 X88.4715 Y74.5796 
G01 X88.3760 Y74.6347 
G01 X88.2694 Y74.6633 
G01 X0.6306 Y74.6633 
G01 X0.5240 Y74.6347 
G01 X0.4285 Y74.5796 
G01 X0.3504 Y74.5015 
G01 X0.2953 Y74.4060 
G01 X0.2667 Y74.2994 
G01 X0.2667 Y74.1890 
G01 X0.2667 Y0.6306 
G00 Z2.5400 
G00 X37.1120 Y8.7496 
G01 Z-0.1778 F254.00 
G01 X36.5005 Y8.4963 F508.00 
G01 X35.8387 Y8.4963 
G01 X35.2272 Y8.7496 
G01 X34.7592 Y9.2176 
G01 X34.5059 Y9.8291 
G01 X34.5059 Y10.4909 
G01 X34.7592 Y11.1024 
G01 X35.2272 Y11.5704 
G01 X35.8387 Y11.8237 
G01 X36.5005 Y11.8237 
G01 X37.1120 Y11.5704 
G01 X37.5800 Y11.1024 
G01 X37.8333 Y10.4909 
G01 X37.8333 Y9.8291 
G01 X37.5800 Y9.2176 
G01 X37.1120 Y8.7496 
G00 Z2.5400 
G00 X31.5595 Y31.3029 
G01 Z-0.1778 F254.00 
G01 X31.5595 Y32.0572 F508.00 
G01 X35.9970 Y36.4947 
G01 X36.0689 Y36.6192 
G01 X36.1061 Y36.7581 
G01 X36.1061 Y63.5719 
G01 X36.0689 Y63.7108 
G01 X35.9970 Y63.8353 
G01 X35.8953 Y63.9370 
G01 X34.6253 Y65.2070 
G01 X34.5008 Y65.2789 
G01 X34.3619 Y65.3161 
G01 X26.5981 Y65.3161 
G01 X26.4610 Y65.2794 
G01 X26.4253 Y65.4126 
G01 X26.3783 Y65.4939 
G01 X35.3338 Y65.4939 
G01 X36.2839 Y64.5438 
G01 X36.2839 Y35.7862 
G01 X30.7872 Y30.2895 
G01 X30.0329 Y30.2895 
G01 X29.4005 Y29.6571 
G01 X29.4005 Y28.7629 
G01 X30.0329 Y28.1305 
G01 X30.9271 Y28.1305 
G01 X31.5595 Y28.7629 
G01 X31.5595 Y29.5172 
G01 X37.1653 Y35.1230 
G01 X37.2670 Y35.2247 
G01 X37.3389 Y35.3492 
G01 X37.3761 Y35.4881 
G01 X37.3761 Y64.8419 
G01 X37.3389 Y64.9808 
G01 X37.2670 Y65.1053 
G01 X35.9970 Y66.3753 
G01 X35.8953 Y66.4770 
G01 X35.7708 Y66.5489 
G01 X35.6319 Y66.5861 
G01 X22.7881 Y66.5861 
G01 X22.6492 Y66.5489 
G01 X22.5247 Y66.4770 
G01 X18.7147 Y62.6670 
G01 X18.6130 Y62.5653 
G01 X18.5411 Y62.4408 
G01 X18.5039 Y62.3019 
G01 X18.5039 Y13.8981 
G01 X18.5411 Y13.7592 
G01 X18.6130 Y13.6347 
G01 X26.2330 Y6.0147 
G01 X26.3347 Y5.9130 
G01 X26.4592 Y5.8411 
G01 X26.5981 Y5.8039 
G01 X73.7319 Y5.8039 
G01 X73.8690 Y5.8406 
G01 X73.9047 Y5.7074 
G01 X73.9063 Y5.7047 
G01 X73.9516 Y5.6261 
G01 X25.6262 Y5.6261 
G01 X17.0561 Y14.1962 
G01 X17.0561 Y63.2738 
G01 X26.0072 Y72.2249 
G01 X33.6828 Y72.2249 
G01 X37.5539 Y68.3538 
G01 X37.5539 Y34.5162 
G01 X30.7872 Y27.7495 
G01 X30.0329 Y27.7495 
G01 X29.4005 Y27.1171 
G01 X29.4005 Y26.2229 
G01 X30.0329 Y25.5905 
G01 X30.6354 Y25.5905 
G01 X30.6036 Y25.4719 
G01 X30.6036 Y25.3281 
G01 X30.6354 Y25.2095 
G01 X30.0329 Y25.2095 
G01 X29.4005 Y24.5771 
G01 X29.4005 Y23.6829 
G01 X30.0329 Y23.0505 
G01 X30.6354 Y23.0505 
G01 X30.6036 Y22.9319 
G01 X30.6036 Y22.7881 
G01 X30.6354 Y22.6695 
G01 X30.0329 Y22.6695 
G01 X29.4005 Y22.0371 
G01 X29.4005 Y21.1429 
G01 X30.0329 Y20.5105 
G01 X29.9881 Y20.4292 
G01 X29.9638 Y20.3385 
G01 X28.4861 Y21.8162 
G01 X28.4861 Y39.7788 
G01 X29.4362 Y40.7289 
G01 X31.5679 Y40.7289 
G01 X31.7068 Y40.7661 
G01 X31.8313 Y40.8380 
G01 X33.3553 Y42.3620 
G01 X33.4570 Y42.4637 
G01 X33.5289 Y42.5882 
G01 X33.5661 Y42.7271 
G01 X33.5661 Y44.5219 
G01 X33.5294 Y44.6590 
G01 X33.6626 Y44.6947 
G01 X33.6653 Y44.6963 
G01 X33.7439 Y44.7416 
G01 X33.7439 Y38.3262 
G01 X30.7872 Y35.3695 
G01 X30.0329 Y35.3695 
G01 X29.4005 Y34.7371 
G01 X29.4005 Y33.8429 
G01 X30.0329 Y33.2105 
G01 X30.9271 Y33.2105 
G01 X31.5595 Y33.8429 
G01 X31.5595 Y34.5972 
G01 X34.7270 Y37.7647 
G01 X34.7989 Y37.8892 
G01 X34.8361 Y38.0281 
G01 X34.8361 Y62.3019 
G01 X34.7989 Y62.4408 
G01 X34.7270 Y62.5653 
G01 X34.6253 Y62.6670 
G01 X33.3553 Y63.9370 
G01 X33.2308 Y64.0089 
G01 X33.0919 Y64.0461 
G01 X29.1381 Y64.0461 
G01 X29.0010 Y64.0094 
G01 X28.9653 Y64.1426 
G01 X28.9183 Y64.2239 
G01 X34.0638 Y64.2239 
G01 X35.0139 Y63.2738 
G01 X35.0139 Y37.0562 
G01 X30.7872 Y32.8295 
G01 X30.0329 Y32.8295 
G01 X29.4005 Y32.1971 
G01 X29.4005 Y31.3029 
G01 X30.0329 Y30.6705 
G01 X30.9271 Y30.6705 
G01 X31.5595 Y31.3029 
G00 Z2.5400 
G00 X31.5595 Y38.9229 
G01 Z-0.1778 F254.00 
G01 X31.5595 Y39.8171 F508.00 
G01 X30.9271 Y40.4495 
G01 X30.0329 Y40.4495 
G01 X29.4005 Y39.8171 
G01 X29.4005 Y38.9229 
G01 X30.0329 Y38.2905 
G01 X30.9271 Y38.2905 
G01 X31.5595 Y38.9229 
G00 Z2.5400 
G00 X31.5595 Y36.3829 
G01 Z-0.1778 F254.00 
G01 X31.5595 Y37.2771 F508.00 
G01 X30.9271 Y37.9095 
G01 X30.0329 Y37.9095 
G01 X29.4005 Y37.2771 
G01 X29.4005 Y36.3829 
G01 X30.0329 Y35.7505 
G01 X30.9271 Y35.7505 
G01 X31.5595 Y36.3829 
G00 Z2.5400 
G00 X47.7184 Y20.3863 
G01 Z-0.1778 F254.00 
G01 X47.6851 Y20.3725 F508.00 
G01 X47.6502 Y20.3631 
G01 X47.6189 Y20.3451 
G01 X47.5856 Y20.3313 
G01 X47.5570 Y20.3093 
G01 X47.5257 Y20.2912 
G01 X47.5001 Y20.2657 
G01 X47.4715 Y20.2437 
G01 X47.4496 Y20.2151 
G01 X47.4240 Y20.1896 
G01 X47.4060 Y20.1583 
G01 X47.3840 Y20.1297 
G01 X47.3702 Y20.0963 
G01 X47.3521 Y20.0650 
G01 X47.3428 Y20.0302 
G01 X47.3290 Y19.9968 
G01 X47.3242 Y19.9610 
G01 X47.3149 Y19.9261 
G01 X47.3149 Y19.8900 
G01 X47.3102 Y19.8542 
G01 X47.3149 Y19.8184 
G01 X47.3149 Y19.7824 
G01 X47.3242 Y19.7475 
G01 X47.3290 Y19.7117 
G01 X47.3428 Y19.6783 
G01 X47.3521 Y19.6435 
G01 X47.3702 Y19.6122 
G01 X47.4597 Y19.3960 
G01 X47.4597 Y18.7040 
G01 X47.1948 Y18.0645 
G01 X46.7055 Y17.5751 
G01 X46.0660 Y17.3103 
G01 X45.3740 Y17.3103 
G01 X44.7345 Y17.5751 
G01 X44.2451 Y18.0645 
G01 X43.9803 Y18.7040 
G01 X43.9803 Y19.3960 
G01 X44.0698 Y19.6122 
G01 X44.0879 Y19.6435 
G01 X44.0972 Y19.6783 
G01 X44.1110 Y19.7117 
G01 X44.1158 Y19.7475 
G01 X44.1251 Y19.7824 
G01 X44.1251 Y19.8184 
G01 X44.1298 Y19.8542 
G01 X44.1251 Y19.8900 
G01 X44.1251 Y19.9261 
G01 X44.1158 Y19.9610 
G01 X44.1110 Y19.9968 
G01 X44.0972 Y20.0302 
G01 X44.0879 Y20.0650 
G01 X44.0698 Y20.0963 
G01 X44.0560 Y20.1297 
G01 X44.0340 Y20.1583 
G01 X44.0160 Y20.1896 
G01 X43.9904 Y20.2151 
G01 X43.9685 Y20.2437 
G01 X43.9399 Y20.2657 
G01 X43.9143 Y20.2912 
G01 X43.8830 Y20.3093 
G01 X43.8544 Y20.3313 
G01 X43.8211 Y20.3451 
G01 X43.7898 Y20.3631 
G01 X43.7549 Y20.3725 
G01 X43.7216 Y20.3863 
G01 X43.7007 Y20.3890 
G01 X44.7364 Y21.4247 
G01 X46.7036 Y21.4247 
G01 X47.7393 Y20.3890 
G01 X47.7184 Y20.3863 
G00 Z2.5400 
G00 X31.2698 Y41.8211 
G01 Z-0.1778 F254.00 
G01 X29.1381 Y41.8211 F508.00 
G01 X28.9992 Y41.7839 
G01 X28.8747 Y41.7120 
G01 X28.7730 Y41.6103 
G01 X27.5030 Y40.3403 
G01 X27.4311 Y40.2158 
G01 X27.3939 Y40.0769 
G01 X27.3939 Y21.5181 
G01 X27.4311 Y21.3792 
G01 X27.5030 Y21.2547 
G01 X27.6047 Y21.1530 
G01 X30.1447 Y18.6130 
G01 X30.2692 Y18.5411 
G01 X30.4081 Y18.5039 
G01 X39.4419 Y18.5039 
G01 X39.5808 Y18.5411 
G01 X39.7053 Y18.6130 
G01 X39.8070 Y18.7147 
G01 X44.6762 Y23.5839 
G01 X48.0338 Y23.5839 
G01 X52.1589 Y19.4588 
G01 X52.1589 Y12.3074 
G01 X52.0750 Y12.3913 
G01 X51.9400 Y12.4894 
G01 X51.9303 Y12.4943 
G01 X51.9303 Y17.5883 
G01 X51.8931 Y17.7272 
G01 X51.8212 Y17.8517 
G01 X51.7195 Y17.9534 
G01 X47.3668 Y22.3061 
G01 X47.2652 Y22.4078 
G01 X47.1406 Y22.4797 
G01 X47.0017 Y22.5169 
G01 X44.4383 Y22.5169 
G01 X44.2994 Y22.4797 
G01 X44.1748 Y22.4078 
G01 X44.0732 Y22.3061 
G01 X39.4582 Y17.6911 
G01 X30.0712 Y17.6911 
G01 X27.2161 Y20.5462 
G01 X27.2161 Y41.6838 
G01 X28.4202 Y42.8879 
G01 X29.4995 Y42.8879 
G01 X30.0329 Y42.3545 
G01 X30.9271 Y42.3545 
G01 X31.5595 Y42.9869 
G01 X31.5595 Y43.8811 
G01 X30.9271 Y44.5135 
G01 X30.0329 Y44.5135 
G01 X29.4995 Y43.9801 
G01 X28.1221 Y43.9801 
G01 X27.9832 Y43.9429 
G01 X27.8587 Y43.8710 
G01 X26.3347 Y42.3470 
G01 X26.2330 Y42.2453 
G01 X26.1611 Y42.1208 
G01 X26.1239 Y41.9819 
G01 X26.1239 Y20.2481 
G01 X26.1611 Y20.1092 
G01 X26.2330 Y19.9847 
G01 X26.3347 Y19.8830 
G01 X29.4080 Y16.8097 
G01 X29.5097 Y16.7080 
G01 X29.6342 Y16.6361 
G01 X29.7731 Y16.5989 
G01 X39.7563 Y16.5989 
G01 X39.8934 Y16.6356 
G01 X39.9291 Y16.5024 
G01 X39.9760 Y16.4211 
G01 X28.8012 Y16.4211 
G01 X25.9461 Y19.2762 
G01 X25.9461 Y45.7478 
G01 X28.1662 Y47.9679 
G01 X29.4995 Y47.9679 
G01 X30.0329 Y47.4345 
G01 X30.6354 Y47.4345 
G01 X30.6036 Y47.3159 
G01 X30.6036 Y47.1721 
G01 X30.6354 Y47.0535 
G01 X30.0329 Y47.0535 
G01 X29.4005 Y46.4211 
G01 X29.4005 Y45.5269 
G01 X30.0329 Y44.8945 
G01 X30.9271 Y44.8945 
G01 X31.3652 Y45.3325 
G01 X32.4739 Y44.2238 
G01 X32.4739 Y43.0252 
G01 X31.2698 Y41.8211 
G00 Z2.5400 
G00 X28.2397 Y15.4380 
G01 Z-0.1778 F254.00 
G01 X28.3642 Y15.3661 F508.00 
G01 X28.5031 Y15.3289 
G01 X44.0968 Y15.3289 
G01 X47.0795 Y12.3462 
G01 X46.9888 Y12.3220 
G01 X46.8642 Y12.2500 
G01 X46.7634 Y12.1492 
G01 X46.7552 Y12.1357 
G01 X46.6559 Y12.2732 
G01 X46.5378 Y12.3913 
G01 X46.4028 Y12.4894 
G01 X46.2541 Y12.5652 
G01 X46.0953 Y12.6167 
G01 X45.9305 Y12.6428 
G01 X45.7635 Y12.6428 
G01 X45.5987 Y12.6167 
G01 X45.5883 Y12.6134 
G01 X43.2614 Y14.9403 
G01 X43.1597 Y15.0420 
G01 X43.0352 Y15.1139 
