(.../pcb-gcode-3_6_0_4/pcb-gcode.ulp)
(Copyright 2005 - 2012 by John Johnson)
(See readme.txt for licensing terms.)
(This file generated from the board:)
(.../Eigene Projekte/Estl-Board/Estl-Board.brd)
(Current profile is .../pcb-gcode-3_6_0_4/profiles/generic.pp  )
(This file generated 17.09.2020 12:04)
(Settings from pcb-machine.h)
(  Tool Size)
(0.1778 )
(Z Axis Settings)
(  High     Up        Down     Drill)
(12.7000 	2.5400 	-0.1778 	-0.8128 )
(spindle on time = 3.0000)
(milling depth = -0.2540)
(text depth = -0.1270)
(tool change at 12.7000 15.2400 25.4000 )
(feed rate xy = F508.00 )
(feed rate z  = F254.00 )
(Settings from pcb-defaults.h)
(isolate min = 0.0254)
(isolate max = 0.5080)
(isolate step = 0.1270)
(Generated top outlines, top drill, )
(Unit of measure: mm)
( Tool|       Size       |  Min Sub |  Max Sub |   Count )
( T01  3.200mm 0.1260in 0.0000in 0.0000in )
( T02  0.813mm 0.0320in 0.0000in 0.0000in )
( T03  1.000mm 0.0394in 0.0000in 0.0000in )
( T04  1.092mm 0.0430in 0.0000in 0.0000in )
( T05  1.194mm 0.0470in 0.0000in 0.0000in )
( T06  3.048mm 0.1200in 0.0000in 0.0000in )
(Metric Mode)
G21
(Absolute Coordinates)
G90
M05
G00 Z25.4000 
G00 X12.7000 Y15.2400 
M06 T01  ; 3.2000 
G01 Z0.0000 F254.00 
M06 T01  ; 3.2000 
G00 Z2.5400 
M03
G04 P3.000000
G00 Z2.540000
G00 X45.7200 Y19.0500 
G01 Z-0.8128 F254.00 
G01 Z2.540000
(R2.5400  P1.000000)
(G00 Z2.540000)
G00 X78.7400 Y71.1200 
G01 Z-0.812800
G01 Z2.540000
(G00 Z2.540000)
G00 X30.4800 Y69.8500 
G01 Z-0.812800
G01 Z2.540000
M05
G00 Z25.4000 
M06 T02  ; 0.8128 
G01 Z0.0000 F254.00 
M06 T02  ; 0.8128 
G00 Z2.5400 
M03
G04 P3.000000
G00 Z2.540000
G00 X10.1600 Y35.5600 
G01 Z-0.8128 F254.00 
G01 Z2.540000
(R2.5400  P1.000000)
(G00 Z2.540000)
G00 X10.1600 Y43.1800 
G01 Z-0.812800
G01 Z2.540000
(G00 Z2.540000)
G00 X12.7000 Y35.5600 
G01 Z-0.812800
G01 Z2.540000
(G00 Z2.540000)
G00 X12.7000 Y43.1800 
G01 Z-0.812800
G01 Z2.540000
(G00 Z2.540000)
G00 X12.7000 Y57.1500 
G01 Z-0.812800
G01 Z2.540000
(G00 Z2.540000)
G00 X12.7000 Y60.9600 
G01 Z-0.812800
G01 Z2.540000
(G00 Z2.540000)
G00 X12.7000 Y67.5640 
G01 Z-0.812800
G01 Z2.540000
(G00 Z2.540000)
G00 X12.7000 Y69.5960 
G01 Z-0.812800
G01 Z2.540000
(G00 Z2.540000)
G00 X22.8600 Y57.1500 
G01 Z-0.812800
G01 Z2.540000
(G00 Z2.540000)
G00 X22.8600 Y60.9600 
G01 Z-0.812800
G01 Z2.540000
M05
G00 Z25.4000 
M06 T03  ; 1.0000 
G01 Z0.0000 F254.00 
M06 T03  ; 1.0000 
G00 Z2.5400 
M03
G04 P3.000000
G00 Z2.540000
G00 X78.7400 Y31.7500 
G01 Z-0.8128 F254.00 
G01 Z2.540000
(R2.5400  P1.000000)
(G00 Z2.540000)
G00 X78.7400 Y34.2900 
G01 Z-0.812800
G01 Z2.540000
(G00 Z2.540000)
G00 X78.7400 Y39.3700 
G01 Z-0.812800
G01 Z2.540000
(G00 Z2.540000)
G00 X78.7400 Y41.9100 
G01 Z-0.812800
G01 Z2.540000
(G00 Z2.540000)
G00 X78.7400 Y44.4500 
G01 Z-0.812800
G01 Z2.540000
(G00 Z2.540000)
G00 X78.7400 Y46.9900 
G01 Z-0.812800
G01 Z2.540000
(G00 Z2.540000)
G00 X78.7400 Y49.5300 
G01 Z-0.812800
G01 Z2.540000
(G00 Z2.540000)
G00 X78.7400 Y52.0700 
G01 Z-0.812800
G01 Z2.540000
(G00 Z2.540000)
G00 X78.7400 Y21.5900 
G01 Z-0.812800
G01 Z2.540000
(G00 Z2.540000)
G00 X78.7400 Y24.1300 
G01 Z-0.812800
G01 Z2.540000
(G00 Z2.540000)
G00 X78.7400 Y26.6700 
G01 Z-0.812800
G01 Z2.540000
(G00 Z2.540000)
G00 X78.7400 Y29.2100 
G01 Z-0.812800
G01 Z2.540000
(G00 Z2.540000)
G00 X30.4800 Y31.7500 
G01 Z-0.812800
G01 Z2.540000
(G00 Z2.540000)
G00 X30.4800 Y34.2900 
G01 Z-0.812800
G01 Z2.540000
(G00 Z2.540000)
G00 X30.4800 Y36.8300 
G01 Z-0.812800
G01 Z2.540000
(G00 Z2.540000)
G00 X30.4800 Y39.3700 
G01 Z-0.812800
G01 Z2.540000
(G00 Z2.540000)
G00 X30.4800 Y43.4340 
G01 Z-0.812800
G01 Z2.540000
(G00 Z2.540000)
G00 X30.4800 Y45.9740 
G01 Z-0.812800
G01 Z2.540000
(G00 Z2.540000)
G00 X30.4800 Y48.5140 
G01 Z-0.812800
G01 Z2.540000
(G00 Z2.540000)
G00 X30.4800 Y51.0540 
G01 Z-0.812800
G01 Z2.540000
(G00 Z2.540000)
G00 X30.4800 Y53.5940 
G01 Z-0.812800
G01 Z2.540000
(G00 Z2.540000)
G00 X30.4800 Y56.1340 
G01 Z-0.812800
G01 Z2.540000
(G00 Z2.540000)
G00 X30.4800 Y58.6740 
G01 Z-0.812800
G01 Z2.540000
(G00 Z2.540000)
G00 X30.4800 Y61.2140 
G01 Z-0.812800
G01 Z2.540000
(G00 Z2.540000)
G00 X30.4800 Y21.5900 
G01 Z-0.812800
G01 Z2.540000
(G00 Z2.540000)
G00 X30.4800 Y24.1300 
G01 Z-0.812800
G01 Z2.540000
(G00 Z2.540000)
G00 X30.4800 Y26.6700 
G01 Z-0.812800
G01 Z2.540000
(G00 Z2.540000)
G00 X30.4800 Y29.2100 
G01 Z-0.812800
G01 Z2.540000
M05
G00 Z25.4000 
M06 T04  ; 1.0922 
G01 Z0.0000 F254.00 
M06 T04  ; 1.0922 
G00 Z2.5400 
M03
G04 P3.000000
G00 Z2.540000
G00 X43.0784 Y11.5824 
G01 Z-0.8128 F254.00 
G01 Z2.540000
(R2.5400  P1.000000)
(G00 Z2.540000)
G00 X44.4627 Y8.7376 
G01 Z-0.812800
G01 Z2.540000
(G00 Z2.540000)
G00 X45.8470 Y11.5824 
G01 Z-0.812800
G01 Z2.540000
(G00 Z2.540000)
G00 X47.2313 Y8.7376 
G01 Z-0.812800
G01 Z2.540000
(G00 Z2.540000)
G00 X48.6156 Y11.5824 
G01 Z-0.812800
G01 Z2.540000
(G00 Z2.540000)
G00 X49.9999 Y8.7376 
G01 Z-0.812800
G01 Z2.540000
(G00 Z2.540000)
G00 X51.3842 Y11.5824 
G01 Z-0.812800
G01 Z2.540000
(G00 Z2.540000)
G00 X52.7685 Y8.7376 
G01 Z-0.812800
G01 Z2.540000
(G00 Z2.540000)
G00 X54.1528 Y11.5824 
G01 Z-0.812800
G01 Z2.540000
(G00 Z2.540000)
G00 X55.5371 Y8.7376 
G01 Z-0.812800
G01 Z2.540000
(G00 Z2.540000)
G00 X56.9214 Y11.5824 
G01 Z-0.812800
G01 Z2.540000
(G00 Z2.540000)
G00 X58.3057 Y8.7376 
G01 Z-0.812800
G01 Z2.540000
(G00 Z2.540000)
G00 X59.6900 Y11.5824 
G01 Z-0.812800
G01 Z2.540000
(G00 Z2.540000)
G00 X61.0743 Y8.7376 
G01 Z-0.812800
G01 Z2.540000
(G00 Z2.540000)
G00 X62.4586 Y11.5824 
G01 Z-0.812800
G01 Z2.540000
(G00 Z2.540000)
G00 X63.8429 Y8.7376 
G01 Z-0.812800
G01 Z2.540000
(G00 Z2.540000)
G00 X65.2272 Y11.5824 
G01 Z-0.812800
G01 Z2.540000
(G00 Z2.540000)
G00 X66.6115 Y8.7376 
G01 Z-0.812800
G01 Z2.540000
(G00 Z2.540000)
G00 X67.9958 Y11.5824 
G01 Z-0.812800
G01 Z2.540000
(G00 Z2.540000)
G00 X69.3801 Y8.7376 
G01 Z-0.812800
G01 Z2.540000
(G00 Z2.540000)
G00 X70.7644 Y11.5824 
G01 Z-0.812800
G01 Z2.540000
(G00 Z2.540000)
G00 X72.1487 Y8.7376 
G01 Z-0.812800
G01 Z2.540000
(G00 Z2.540000)
G00 X73.5330 Y11.5824 
G01 Z-0.812800
G01 Z2.540000
(G00 Z2.540000)
G00 X74.9173 Y8.7376 
G01 Z-0.812800
G01 Z2.540000
(G00 Z2.540000)
G00 X76.3016 Y11.5824 
G01 Z-0.812800
G01 Z2.540000
M05
G00 Z25.4000 
M06 T05  ; 1.1938 
G01 Z0.0000 F254.00 
M06 T05  ; 1.1938 
G00 Z2.5400 
M03
G04 P3.000000
G00 Z2.540000
G00 X5.0800 Y49.5700 
G01 Z-0.8128 F254.00 
G01 Z2.540000
(R2.5400  P1.000000)
(G00 Z2.540000)
G00 X5.0800 Y54.5700 
G01 Z-0.812800
G01 Z2.540000
(G00 Z2.540000)
G00 X5.0800 Y22.9000 
G01 Z-0.812800
G01 Z2.540000
(G00 Z2.540000)
G00 X5.0800 Y27.9000 
G01 Z-0.812800
G01 Z2.540000
M05
G00 Z25.4000 
M06 T06  ; 3.0480 
G01 Z0.0000 F254.00 
M06 T06  ; 3.0480 
G00 Z2.5400 
M03
G04 P3.000000
G00 Z2.540000
G00 X36.1696 Y10.1600 
G01 Z-0.8128 F254.00 
G01 Z2.540000
(R2.5400  P1.000000)
(G00 Z2.540000)
G00 X83.2104 Y10.1600 
G01 Z-0.812800
G01 Z2.540000
T01 
G00 Z12.7000 
M05
M02
